/* XPM */
static char * door_xpm[] = {
"64 64 846 2",
"  	c #211E1F",
". 	c #2E2928",
"+ 	c #312C29",
"@ 	c #312C2A",
"# 	c #322D2B",
"$ 	c #2D2827",
"% 	c #2C2726",
"& 	c #2B2726",
"* 	c #2F2A29",
"= 	c #302B29",
"- 	c #2F2A28",
"; 	c #292525",
"> 	c #1E1C1E",
", 	c #242122",
"' 	c #2E2927",
") 	c #302A29",
"! 	c #312B2A",
"~ 	c #322C2A",
"{ 	c #2C2827",
"] 	c #312B29",
"^ 	c #312D2C",
"/ 	c #302C2B",
"( 	c #302C2A",
"_ 	c #312D2A",
": 	c #312D2B",
"< 	c #2D2927",
"[ 	c #1F1C1E",
"} 	c #2A2625",
"| 	c #322E2C",
"1 	c #2E2A28",
"2 	c #282424",
"3 	c #322E2B",
"4 	c #221F20",
"5 	c #252121",
"6 	c #1F1D1E",
"7 	c #504740",
"8 	c #534A42",
"9 	c #524941",
"0 	c #4D453F",
"a 	c #48413B",
"b 	c #463F3A",
"c 	c #47403B",
"d 	c #49423C",
"e 	c #4D443E",
"f 	c #4B433D",
"g 	c #4A423C",
"h 	c #3F3935",
"i 	c #3D3733",
"j 	c #4F4740",
"k 	c #4F463F",
"l 	c #514741",
"m 	c #524842",
"n 	c #514841",
"o 	c #473F3A",
"p 	c #423B37",
"q 	c #554B44",
"r 	c #504741",
"s 	c #4E453F",
"t 	c #504944",
"u 	c #514A45",
"v 	c #4E4640",
"w 	c #504841",
"x 	c #514942",
"y 	c #453E39",
"z 	c #544B43",
"A 	c #524942",
"B 	c #524A44",
"C 	c #514B47",
"D 	c #504A47",
"E 	c #504945",
"F 	c #3E3935",
"G 	c #4A433D",
"H 	c #3E3833",
"I 	c #584E46",
"J 	c #4F4640",
"K 	c #443E39",
"L 	c #2B2827",
"M 	c #4E463F",
"N 	c #3B3632",
"O 	c #3C3632",
"P 	c #383331",
"Q 	c #2A2626",
"R 	c #4E453E",
"S 	c #4C443D",
"T 	c #393431",
"U 	c #383330",
"V 	c #3F3835",
"W 	c #48403B",
"X 	c #3C3733",
"Y 	c #3A3531",
"Z 	c #3A3532",
"` 	c #373231",
" .	c #38322E",
"..	c #564C44",
"+.	c #413B36",
"@.	c #393531",
"#.	c #2E2A29",
"$.	c #453D37",
"%.	c #463F39",
"&.	c #3A3431",
"*.	c #3B3633",
"=.	c #2A2726",
"-.	c #4A413B",
";.	c #3E3834",
">.	c #342F2E",
",.	c #3B3532",
"'.	c #3C3732",
").	c #3D3834",
"!.	c #373331",
"~.	c #352F2C",
"{.	c #292526",
"].	c #413A35",
"^.	c #443D38",
"/.	c #292625",
"(.	c #483F3A",
"_.	c #373230",
":.	c #353030",
"<.	c #2F2B2B",
"[.	c #231F21",
"}.	c #242123",
"|.	c #262325",
"1.	c #272426",
"2.	c #272325",
"3.	c #262225",
"4.	c #262224",
"5.	c #252224",
"6.	c #242022",
"7.	c #272324",
"8.	c #403A35",
"9.	c #282525",
"0.	c #393330",
"a.	c #3B3732",
"b.	c #363230",
"c.	c #282425",
"d.	c #393331",
"e.	c #35302F",
"f.	c #322D2D",
"g.	c #332F2D",
"h.	c #2D292A",
"i.	c #2A2628",
"j.	c #322D2C",
"k.	c #332E2C",
"l.	c #272423",
"m.	c #302B2A",
"n.	c #4A433E",
"o.	c #4E4741",
"p.	c #4F4844",
"q.	c #504B48",
"r.	c #504A48",
"s.	c #4A4441",
"t.	c #433C38",
"u.	c #2D2828",
"v.	c #2C2729",
"w.	c #36312F",
"x.	c #2D2928",
"y.	c #35302D",
"z.	c #3A3432",
"A.	c #302B2B",
"B.	c #232021",
"C.	c #332E2E",
"D.	c #3C3633",
"E.	c #373330",
"F.	c #302C2C",
"G.	c #34302E",
"H.	c #35302E",
"I.	c #292527",
"J.	c #443D39",
"K.	c #38322F",
"L.	c #433D38",
"M.	c #433D39",
"N.	c #413C38",
"O.	c #3E3835",
"P.	c #3C3634",
"Q.	c #453E3A",
"R.	c #49413C",
"S.	c #403936",
"T.	c #3D3734",
"U.	c #2E2A2B",
"V.	c #312C2D",
"W.	c #2B2728",
"X.	c #363130",
"Y.	c #2F2A2B",
"Z.	c #221F21",
"`.	c #342F2F",
" +	c #262223",
".+	c #232022",
"++	c #2F2B29",
"@+	c #322D2E",
"#+	c #393432",
"$+	c #2A2727",
"%+	c #272424",
"&+	c #211F20",
"*+	c #302B2C",
"=+	c #2F2B2C",
"-+	c #2C2828",
";+	c #2B2727",
">+	c #4A423D",
",+	c #2D2929",
"'+	c #3D3833",
")+	c #312D2D",
"!+	c #2C2928",
"~+	c #1E1B1E",
"{+	c #2C2829",
"]+	c #332F2F",
"^+	c #252123",
"/+	c #272425",
"(+	c #1E1B1D",
"_+	c #2A2627",
":+	c #312C2C",
"<+	c #2E292A",
"[+	c #2F2A2C",
"}+	c #302C2D",
"|+	c #37312F",
"1+	c #2F2B2A",
"2+	c #393532",
"3+	c #46403B",
"4+	c #423B38",
"5+	c #252124",
"6+	c #2D292B",
"7+	c #2D282A",
"8+	c #231F22",
"9+	c #1C1A1C",
"0+	c #312C2B",
"a+	c #46403A",
"b+	c #433C37",
"c+	c #353130",
"d+	c #201D1F",
"e+	c #302B2D",
"f+	c #312D2E",
"g+	c #3B3733",
"h+	c #383431",
"i+	c #46403C",
"j+	c #4C453F",
"k+	c #403B36",
"l+	c #201D20",
"m+	c #1D1A1C",
"n+	c #1C191C",
"o+	c #252223",
"p+	c #1B191B",
"q+	c #3D3835",
"r+	c #49423E",
"s+	c #4F4A47",
"t+	c #55504E",
"u+	c #54504E",
"v+	c #534F4D",
"w+	c #443E3A",
"x+	c #574C44",
"y+	c #443E38",
"z+	c #322E2E",
"A+	c #1E1C1D",
"B+	c #4C4540",
"C+	c #47403A",
"D+	c #4C443E",
"E+	c #181618",
"F+	c #1A181A",
"G+	c #4B443D",
"H+	c #4B433C",
"I+	c #4C433D",
"J+	c #403A36",
"K+	c #322E2D",
"L+	c #252222",
"M+	c #2E292B",
"N+	c #191618",
"O+	c #1A1719",
"P+	c #1B1819",
"Q+	c #1D191A",
"R+	c #302420",
"S+	c #352722",
"T+	c #2E2320",
"U+	c #211B1B",
"V+	c #1F191A",
"W+	c #1B1719",
"X+	c #191719",
"Y+	c #2F2A2A",
"Z+	c #403935",
"`+	c #433D37",
" @	c #3A3430",
".@	c #191718",
"+@	c #221B1B",
"@@	c #2A211F",
"#@	c #2D221F",
"$@	c #231D1D",
"%@	c #382822",
"&@	c #3C2A24",
"*@	c #392922",
"=@	c #332621",
"-@	c #1E1A1C",
";@	c #372822",
">@	c #382823",
",@	c #29201E",
"'@	c #271E1D",
")@	c #271E1C",
"!@	c #1F1A1A",
"~@	c #2D2829",
"{@	c #262222",
"]@	c #1B181B",
"^@	c #241D1D",
"/@	c #281F1D",
"(@	c #2B201E",
"_@	c #302320",
":@	c #322521",
"<@	c #352621",
"[@	c #3B2923",
"}@	c #442F26",
"|@	c #4A3227",
"1@	c #4A3228",
"2@	c #463026",
"3@	c #201B1C",
"4@	c #412D24",
"5@	c #442F25",
"6@	c #3A2923",
"7@	c #372722",
"8@	c #291F1D",
"9@	c #372621",
"0@	c #1E1A1D",
"a@	c #2A2527",
"b@	c #1F1C1D",
"c@	c #1D1B1D",
"d@	c #201D1E",
"e@	c #332F2E",
"f@	c #1A171A",
"g@	c #322520",
"h@	c #312420",
"i@	c #31231F",
"j@	c #3B2A23",
"k@	c #3D2B23",
"l@	c #473127",
"m@	c #432E25",
"n@	c #52392C",
"o@	c #4B3328",
"p@	c #4D3529",
"q@	c #4C3428",
"r@	c #221D1D",
"s@	c #4F372A",
"t@	c #4D3429",
"u@	c #2E221F",
"v@	c #3B2922",
"w@	c #332521",
"x@	c #1B191A",
"y@	c #221E20",
"z@	c #34302F",
"A@	c #2E2A2A",
"B@	c #242121",
"C@	c #262221",
"D@	c #36312E",
"E@	c #2C2727",
"F@	c #201B1B",
"G@	c #332520",
"H@	c #342621",
"I@	c #3E2B24",
"J@	c #372721",
"K@	c #443026",
"L@	c #483127",
"M@	c #322621",
"N@	c #583E2F",
"O@	c #51382B",
"P@	c #53392C",
"Q@	c #4D3428",
"R@	c #241E1E",
"S@	c #553B2D",
"T@	c #4E3529",
"U@	c #362621",
"V@	c #422E25",
"W@	c #201A1A",
"X@	c #3E3733",
"Y@	c #312B28",
"Z@	c #544A42",
"`@	c #48403A",
" #	c #211E20",
".#	c #1C191A",
"+#	c #2A201E",
"@#	c #452F26",
"##	c #493529",
"$#	c #473126",
"%#	c #4A3328",
"&#	c #332722",
"*#	c #573D2F",
"=#	c #483126",
"-#	c #4F3629",
";#	c #231D1E",
">#	c #543A2C",
",#	c #493227",
"'#	c #5B3F30",
")#	c #1E1919",
"!#	c #463E39",
"~#	c #473F39",
"{#	c #282426",
"]#	c #383230",
"^#	c #2F2A27",
"/#	c #393430",
"(#	c #1A1718",
"_#	c #221D1C",
":#	c #3F2C24",
"<#	c #4C372B",
"[#	c #4E3629",
"}#	c #4F3529",
"|#	c #4B3327",
"1#	c #312521",
"2#	c #563C2D",
"3#	c #563C2E",
"4#	c #51372B",
"5#	c #5A3F30",
"6#	c #231C1B",
"7#	c #261D1C",
"8#	c #1A1819",
"9#	c #262324",
"0#	c #352F2F",
"a#	c #312B2D",
"b#	c #2D2826",
"c#	c #4B423C",
"d#	c #1D1B1C",
"e#	c #291F1C",
"f#	c #362721",
"g#	c #483227",
"h#	c #473026",
"i#	c #402C24",
"j#	c #4B372B",
"k#	c #533A2C",
"l#	c #52382B",
"m#	c #453026",
"n#	c #593E2F",
"o#	c #4A3327",
"p#	c #322420",
"q#	c #2E221E",
"r#	c #534941",
"s#	c #3A3632",
"t#	c #2B2628",
"u#	c #35251F",
"v#	c #422D24",
"w#	c #412D25",
"x#	c #473429",
"y#	c #4C3328",
"z#	c #543A2D",
"A#	c #493127",
"B#	c #382722",
"C#	c #5E4232",
"D#	c #4B3429",
"E#	c #30231E",
"F#	c #514840",
"G#	c #242120",
"H#	c #35241F",
"I#	c #3F2B23",
"J#	c #432E24",
"K#	c #3C2A23",
"L#	c #4B3228",
"M#	c #312522",
"N#	c #4E362A",
"O#	c #483026",
"P#	c #251F1F",
"Q#	c #462F26",
"R#	c #342622",
"S#	c #593F30",
"T#	c #422D25",
"U#	c #2B211F",
"V#	c #2A201D",
"W#	c #4D443D",
"X#	c #1F1C1F",
"Y#	c #231F20",
"Z#	c #594F46",
"`#	c #584E45",
" $	c #574D44",
".$	c #49413B",
"+$	c #383638",
"@$	c #3F3D3F",
"#$	c #322F30",
"$$	c #383637",
"%$	c #3F3C3E",
"&$	c #403E3F",
"*$	c #3E3C3E",
"=$	c #3C3A3C",
"-$	c #3F3D40",
";$	c #3A3839",
">$	c #2C2A2B",
",$	c #403E40",
"'$	c #3E3B3E",
")$	c #393739",
"!$	c #403D40",
"~$	c #3F3C3F",
"{$	c #373537",
"]$	c #312E30",
"^$	c #2B282A",
"/$	c #574D45",
"($	c #1F1D1D",
"_$	c #342F2B",
":$	c #342E2B",
"<$	c #332D29",
"[$	c #252122",
"}$	c #3C393B",
"|$	c #464342",
"1$	c #4A4741",
"2$	c #454140",
"3$	c #423F41",
"4$	c #423F42",
"5$	c #413E41",
"6$	c #403C3F",
"7$	c #3D3A3B",
"8$	c #363133",
"9$	c #434042",
"0$	c #413D40",
"a$	c #403C3E",
"b$	c #474444",
"c$	c #413E40",
"d$	c #423E41",
"e$	c #444042",
"f$	c #484444",
"g$	c #444142",
"h$	c #403D3F",
"i$	c #423F40",
"j$	c #343032",
"k$	c #322F2F",
"l$	c #292626",
"m$	c #232020",
"n$	c #2F2927",
"o$	c #2A2524",
"p$	c #312C2F",
"q$	c #3C3835",
"r$	c #49473F",
"s$	c #3C3A35",
"t$	c #322D30",
"u$	c #332E30",
"v$	c #322D2F",
"w$	c #45423B",
"x$	c #312D2F",
"y$	c #373332",
"z$	c #423F39",
"A$	c #3D3A35",
"B$	c #322E30",
"C$	c #393534",
"D$	c #383532",
"E$	c #282527",
"F$	c #2C2725",
"G$	c #35312F",
"H$	c #302B2E",
"I$	c #2E292C",
"J$	c #272327",
"K$	c #2D282B",
"L$	c #2B2629",
"M$	c #302C2E",
"N$	c #312C2E",
"O$	c #2F2B2D",
"P$	c #292528",
"Q$	c #2F2A2D",
"R$	c #2C272A",
"S$	c #453D39",
"T$	c #272322",
"U$	c #2B2725",
"V$	c #232023",
"W$	c #242023",
"X$	c #171618",
"Y$	c #423C37",
"Z$	c #242021",
"`$	c #292524",
" %	c #221B1A",
".%	c #382821",
"+%	c #3B2A22",
"@%	c #342520",
"#%	c #2F2320",
"$%	c #30231F",
"%%	c #31241F",
"&%	c #3A2922",
"*%	c #2F231F",
"=%	c #342521",
"-%	c #251D1B",
";%	c #33231E",
">%	c #422E24",
",%	c #1F1A1C",
"'%	c #2E211E",
")%	c #181719",
"!%	c #373130",
"~%	c #2B2729",
"{%	c #332E2D",
"]%	c #34241E",
"^%	c #432F26",
"/%	c #452F25",
"(%	c #53382B",
"_%	c #4B3227",
":%	c #2F221D",
"<%	c #36251F",
"[%	c #483329",
"}%	c #583D2E",
"|%	c #4D3328",
"1%	c #1D1A1D",
"2%	c #342F2D",
"3%	c #1C191B",
"4%	c #392720",
"5%	c #463126",
"6%	c #583D2F",
"7%	c #4B362A",
"8%	c #2F2420",
"9%	c #2D2B2C",
"0%	c #3D3B3B",
"a%	c #373433",
"b%	c #31231E",
"c%	c #332F2C",
"d%	c #403834",
"e%	c #403934",
"f%	c #3F3733",
"g%	c #242020",
"h%	c #413A36",
"i%	c #49403A",
"j%	c #483F39",
"k%	c #463E38",
"l%	c #39322F",
"m%	c #392620",
"n%	c #493429",
"o%	c #493126",
"p%	c #221C1D",
"q%	c #32231F",
"r%	c #494747",
"s%	c #3C3939",
"t%	c #302E2D",
"u%	c #291E1C",
"v%	c #3A3330",
"w%	c #3B3531",
"x%	c #39332F",
"y%	c #3E3732",
"z%	c #3E3632",
"A%	c #3C3530",
"B%	c #534942",
"C%	c #4D453E",
"D%	c #423B36",
"E%	c #292523",
"F%	c #383231",
"G%	c #37261F",
"H%	c #4A352A",
"I%	c #573D2E",
"J%	c #211C1C",
"K%	c #392721",
"L%	c #2A2728",
"M%	c #424041",
"N%	c #434040",
"O%	c #3E3B3A",
"P%	c #2F2C2C",
"Q%	c #292727",
"R%	c #221F1F",
"S%	c #2A2523",
"T%	c #312520",
"U%	c #211B1C",
"V%	c #462F25",
"W%	c #261D1B",
"X%	c #4F4D4E",
"Y%	c #2F2C2E",
"Z%	c #434142",
"`%	c #413F41",
" &	c #232122",
".&	c #302D2E",
"+&	c #302D2D",
"@&	c #181619",
"#&	c #3A3631",
"$&	c #342E2E",
"%&	c #282323",
"&&	c #201C1E",
"*&	c #32221D",
"=&	c #4E3428",
"-&	c #473228",
";&	c #463228",
">&	c #4E3429",
",&	c #211C1D",
"'&	c #2B201C",
")&	c #615E60",
"!&	c #353335",
"~&	c #504E4F",
"{&	c #494748",
"]&	c #292728",
"^&	c #272526",
"/&	c #36302F",
"(&	c #252120",
"_&	c #50372A",
":&	c #483228",
"<&	c #50372B",
"[&	c #53392B",
"}&	c #442E25",
"|&	c #452E25",
"1&	c #2C221F",
"2&	c #464445",
"3&	c #383535",
"4&	c #363332",
"5&	c #2A2829",
"6&	c #474343",
"7&	c #211F1F",
"8&	c #50362A",
"9&	c #494648",
"0&	c #444141",
"a&	c #2E2B2B",
"b&	c #2C292A",
"c&	c #353234",
"d&	c #413D3D",
"e&	c #3C393A",
"f&	c #342A28",
"g&	c #504C4D",
"h&	c #3D393A",
"i&	c #1D1819",
"j&	c #221C1B",
"k&	c #241D1C",
"l&	c #2A2729",
"m&	c #514E50",
"n&	c #242223",
"o&	c #2C201D",
"p&	c #553A2D",
"q&	c #4C494A",
"r&	c #3D3A3A",
"s&	c #2F2929",
"t&	c #4C4A4B",
"u&	c #252324",
"v&	c #2E211D",
"w&	c #4D3528",
"x&	c #302523",
"y&	c #454242",
"z&	c #423F3D",
"A&	c #4C4849",
"B&	c #201E1F",
"C&	c #282325",
"D&	c #453D38",
"E&	c #3E2B23",
"F&	c #453127",
"G&	c #332622",
"H&	c #412C24",
"I&	c #393636",
"J&	c #343232",
"K&	c #2E2C2D",
"L&	c #504D4F",
"M&	c #463E3A",
"N&	c #262323",
"O&	c #332E2B",
"P&	c #342F2C",
"Q&	c #3F3934",
"R&	c #2E221D",
"S&	c #342722",
"T&	c #593E30",
"U&	c #51372A",
"V&	c #523A2C",
"W&	c #291F1E",
"X&	c #222022",
"Y&	c #3A3637",
"Z&	c #484545",
"`&	c #4D4A4B",
" *	c #4B4848",
".*	c #343133",
"+*	c #37312E",
"@*	c #2A2624",
"#*	c #48413A",
"$*	c #37322F",
"%*	c #352721",
"&*	c #483429",
"**	c #231E1E",
"=*	c #2B2828",
"-*	c #2A1F1C",
";*	c #583E30",
">*	c #3A2A23",
",*	c #2D211E",
"'*	c #544A41",
")*	c #2B2625",
"!*	c #4C3327",
"~*	c #503529",
"{*	c #563B2C",
"]*	c #241E1F",
"^*	c #2F221E",
"/*	c #2C282A",
"(*	c #3E3B3D",
"_*	c #3D3B3D",
":*	c #3E3C3D",
"<*	c #3D3A3D",
"[*	c #3B393B",
"}*	c #373436",
"|*	c #343234",
"1*	c #2C2728",
"2*	c #423E40",
"3*	c #444041",
"4*	c #413E3D",
"5*	c #433F42",
"6*	c #433F41",
"7*	c #413E3F",
"8*	c #2E2B2D",
"9*	c #3A3734",
"0*	c #4C4840",
"a*	c #3B3834",
"b*	c #3A3633",
"c*	c #2F2B2E",
"d*	c #423E39",
"e*	c #342F30",
"f*	c #43403A",
"g*	c #373431",
"h*	c #262326",
"i*	c #292628",
"j*	c #262226",
"k*	c #282427",
"l*	c #272326",
"m*	c #2C2826",
"n*	c #272323",
"o*	c #211D1F",
"p*	c #19171A",
"q*	c #302A28",
"r*	c #251D1C",
"s*	c #2C211E",
"t*	c #2B211E",
"u*	c #30241F",
"v*	c #221C1C",
"w*	c #2E231F",
"x*	c #221E21",
"y*	c #211E21",
"z*	c #2E2827",
"A*	c #392923",
"B*	c #4F372B",
"C*	c #3E2C24",
"D*	c #443128",
"E*	c #4F362A",
"F*	c #322622",
"G*	c #553C2E",
"H*	c #5D4232",
"I*	c #282423",
"J*	c #412E25",
"K*	c #2F2421",
"L*	c #423C36",
"M*	c #36322F",
"N*	c #4C3429",
"O*	c #201B1D",
"P*	c #3D2A23",
"Q*	c #302421",
"R*	c #362722",
"S*	c #28201F",
"T*	c #402C25",
"U*	c #3F2B24",
"V*	c #312421",
"W*	c #352622",
"X*	c #2B2120",
"Y*	c #3E2A23",
"Z*	c #3A2822",
"`*	c #433C36",
" =	c #453E38",
".=	c #3F3834",
"+=	c #443D37",
"@=	c #49413A",
"#=	c #4A423B",
"$=	c #4C433C",
"%=	c #4B423B",
"&=	c #4C423C",
"*=	c #443C37",
"==	c #352F2D",
"-=	c #4A413A",
";=	c #4D443C",
">=	c #3F3A35",
",=	c #222021",
"'=	c #282526",
")=	c #201E20",
"!=	c #1F1D1F",
"~=	c #211D20",
"  . + @ # @ $ % & % * = - - ; > , ' = ) ! ~ @ ) + { ; @ + ] ) ^ / ( _ : @ < & [ } @ ~ # : | ^ ^ 1 2 1 3 # < 4 5 @ ] + = @ = & 6 ",
"$ 7 8 9 7 0 a b c d e e f g h , i j k j l m n f 7 o p q r j s t u v w x v b y - f z n A B C D E f F G B B g : H I q 7 7 j J K L ",
"- M y i N N N N N N O N N N P Q R S N N N N T T N U V W X Y Y Y Z N N N Y U `  ...+.@.Y Z N T T N N N N Y i #.$.n %.N &.U T U Q ",
"$ o N Y N O N *.N N N N i O N =.-.;.N N N N N Z N >.>.,.'.N N N N N N ).Z !.` ~.d N N N X N P N N X X N N T {.].^.N N N X N @.& ",
"; ).Y Z T @.N N N Z N T Z O N /.(.h N ,.Z _.:.<.<.[.> }.|.1.2.|.3.4.|.5., 6.4.7.U T Z N N P _.N X 8.h N N P 9.0.'.N O N a.N b.c.",
", _.d.P e.U N N N f.&.;.N ,.@./.i i *.X g.h.i.j.k.@ l.m.n.o.p.D q.r.s.t.N [ 1 # u.v.w.T P _.U O '.X N N N Z x.y.X X z.T O _.A.B.",
"[.C._.T T ,.,.Z P >.D.N T U E.; F.e.G.H.I.0.z.J.o K K.k.7 b L.K M.N.O.P.*.#.Q.R.S.D.T.<.U.V.e.N N T T Z Z Z W.: O N X.U N e.Y.6.",
"Z.V.e.T ,.Z P w.F.Z Y &.C.`.e. +}..+W.w.p a y ).N D.: ++W N N N N N N ,.H.++).N ;.a c h A.2./ X.E._.@+e.#+T 2.$+_.N ,.N N N _.%+",
"&+*+`._._.X.C.V.V.U P e.@+f.=+Z.-+;+C.d >+i N N N N : ,+T X '+X a.N N Y )+!+Z Z D.N T y F 4.~+.+{+V.]+C.#+E.^+4.f.Y Z Z T U b./+",
"(+_+g.:+U.<+U.[+*+*+=+*+}+U.i.|+0 R.{._.z.Y N N T U 1+c.@+b.` z.*.N P C.{+:+2+Z N N D.b.*+F.3+4+e.5+{+6+7+i.8+}.U.f._._.>.*+h.Z.",
"9+9+[ [..+[.[..+}..+.+Z..+0+g a+b+;.I.U.c+#+N N P V.7+d+{+*+e+V.C.C.f+h.}.=+@+Z g+T h+C.i.i+j+k+F b /+l+[ m+n+9+[.8+6., o+}.d+p+",
"4 q+r+s+t+u+v+s+w+: ~+n+-+x+y+,.*.*.=+2.z+#+X.f.V.V.7+m+[ > [ [ [ A+(+[ m+3.f+`.C.C.C.]+U B+;.X N C+D+m.E+F+{ i G+H+S I+g i ;+n+",
"4 J+r g i Z T Z N K+L+U n ).N Z N *.P |.i.M+1.Z.> 9+N+O+P+Q+R+S+T+R+F+U+V+W+X+X+Z.E._..+Y+X X X X i '+y 1+F+, f._.8.b+X X D.T 4 ",
"B.Z+g `+N N N X X ,+ @D+;.D.N N T _.C.{.p+E+X+X+.@+@@@T+#@$@%@&@*@=@-@;@>@,@'@)@!@Q+X+F+~@e.Z X X X N Y e.d+d+G.N i +.X D.N T 4 ",
"{@i N Y d.T Z Z N Z.2 D.X N N N ]+)+2.]@E+N+^@/@(@_@:@<@[@,@}@|@1@2@3@4@5@;@6@7@8@9@U+E+0@a@>.K+T X X w.z+b@c@/ Z N N N N X _.d@",
"L+i N w.V.X.N Z f.L+e@<+w.Z Z >.[+^+f@E+Q+g@h@i@j@k@l@m@2@R+n@o@p@q@r@s@t@}@5@4@u@v@w@'@W+x@y@[+@+`.!.C.C.{+5.{.Z N N Z _.z@A@(+",
"B@,.N P U ;.Y N A.C@ @D@E@g.e@M+d+F+F@G@H@I@J@K@q@2@L@L@o@M@N@O@P@Q@R@S@T@L@L@o@U@T@V@J@G@W@.@[ c.W.{.X@p z._+2.Y N O U Y T <.(+",
"  e.,.,.N D.T Y F.Y@Z@y+`@Y+B. #X+.#+#*@*@@#J@##s@|@$#%#p@&#*#=#-#T@;#>#Q@L@2@,#%@'#l@V@k@_@)#O+O+0+!#n ~#X {#{#T N N O Y Z g.[ ",
"d+A.>.]#T >.f.:+7+^#R Z ).C+/#x@(#_#j@j@:#o@:#<#[#q@Q@}#|#1#2#>#3#T@R@4#p@=#L@|@7@5#t@Q@L@;@6#7#8#h o ;.Y _.9#4.X.Z T _.C.:+Y.[ ",
" #@+f.@+0#@+V.a#v.b#c#T _._.>.d#e#f#4@V@g#h#i#j#k#5@L@2@|@T+O@|@q@q@R@l#t@L@m#|#7@n#L@$#o#,#p#q#X+r#X N s#w.5., *+X.`.C.V.V.Y.(+",
" #V.*+U.f.@+Y.U.t#b#H+U _.Y H.d@u#2@v#|@t@%#w#x#S@p@y#,#|@1#z#$#y#t@R@O@m#A#m@|@B#C#,#D#o@L@g@E#X+F#'.U N T 5..+U.[+Y.[+[+*+I.m+",
"m+B.Z.Z.^+o+.+ #~+G#;.w.U T w.  H#h#I#J#2@o@K#K#}#L#A#A#2@M#N#O#O#|@P#O#Q#h#4@2@R#S#A#|@|@T#U#V#X+W#Z H.N K+.+9+ #y@.+.+.+Z.X#p+",
"Y#`@Z#I `# $.$P h.9+A@X P X.{.p+ #+$@$#$$$%$&$*$=$*$-$;$>$,$'$=$)$-$@$@$@$@$!$@$~$-$@$@$-${$]$^$X+%.T ,.N _./+ #{+Z+Z@`#/$+.)+ #",
", C+f Y &.Y Y N U ($= _$:$<$[$p+5.}$|$1$2$3$4$5$!$6$3$7$8$9$0$'$a$b$5$5$c$d$e$f$g$3$3$h$i$7$j$k$E+h N X ,.e.5.l$X Z Y T N @.Y m$",
"n$e N N N N N X N o$e M 7 M w. #5.p$q$r$s$t$u$u$v$w$b.p$v$v$x$w$}+x$v$t$y$z$A$x$v$B$C$r$D$p$p$E$E+{@1 - { B.m+x.D.N N N N N Z m$",
"F$b G$T N N N N w.' R i N T w. #}.H$v$I$J$H$x$p$p$K$L$M$N$O$p$P$P$Q$M$v$x$6+3.M$M$x$t$R$P$p$H$2.E+S$D+g ^.>.}.6.w.N N Y Y N G.[ ",
"T$;.U &.Z ]#Z T *+U$g h '.O w.6 c@}.5.5.5.3.^+V$4.|.3.3.4.8+5.5.5.W$W$3.3.3.3.5+5.3.|.3.5.5+W$~+X$n Y$T w.>.|..+>.Z N T T Z >.(+",
"Z$N O Z T &.U @+7+`$b+,.Z N H.[  %p#<@.%+%%@@%8@g@#%$%%%<@$@&%J@<@U@x@h@p#*%=%<@,@@%G@%%H@%@*%-%E+W#T _.T e.7..+Y _._.e.P ,.H.(+",
"B.P _.T Z Z T _.A@B@P >.Y N G$d+;%L@L@=#o@>%i#[@h#h#m@v#5@#%s@m@2@5@,%=#A#A#A#L@=%h#2@4@@#,#j@'%)%W#w.!%U f.9#.+f.>.C.w.Y _.F.~+",
"B.e.>.]#Y &.U :+~%  {%]#N N e.  ]%o@2@2@T@V@T#^%o@Q@h#/%$#:@z#m@h#o@3@(%T@|@L@o@%@_%p@o@p@o@K#:%E+-.U &._.f.4.6.Y.e.T Y Z e.*+> ",
"4 e@C.>.>.e.T >.i.[ Y.w.X d.Y.[ <%,#k@$#o#m@i#[%p@-#=#2@h#1#S@T#|@A#r@}%T@5@V@,#J@|%h#$#A#h#K#E#E+T._.T `.V.4..+i.*+X.w.P f.U.[ ",
"1%4.t#i._+W.1+{+d+(+-+A.2%0+2.3%4%,#5%6%p@o@i#7%z#-#L@2@A#8%P@2@q@/%$@5#Q@5@4@=#%@y#9%0%a%!+m@b%E+;+c%2%g.<+ #d+.+4._+v.~@W.4.n+",
"(+~ X@d%e%f% .x.  g%h%i%j%k%l%m+m%o@h#q@=#|#I@n%O@|@h#y#o%:@n#P@T@|#p%l#y#m@o@o@&%q%{$r%s%t%i@u%E+# v%w%x%; d+9+{ y.y%z%f%A%Q m+",
"B.t.B%M s C%D%_.W.E%a b+8.;.F%  G%=#o%,#>%|@i#H%4#A#/%y#|@:@I%,#Q@q@J%n@y#L@Q@t@K%L%M%N%O%P%/+Q%E+D+`@y b+T c.& +.b+C+o a `@#+R%",
"' J p N Y N N Y A@S%g %.+.X _.  <%,#|@$#5@o@m@<#l@=#m@Q@|@T%n@=#Q@y#U%4#y#V%Q@A#W%X%Y%Z%`% &.&+&@&8 ;.N #&T c.Q $&N &.,.N ].Y   ",
"$ H+T _.e.,.N Z Y.%&+.N N O w.&&*&>%Q@h#2@=&-&;&o@A#m@>&|#=@n#2@Q@o@,&P@t@5@Q@|@'&)&!&~&{&L%]&^&E+g '.N N e.^+4._.T ,.N O '+N 4 ",
"% b _.e./&N '+,.Y.(&i '.O Y ~@[ <%h#T@$#$#_&:&7%<&5@Q@}#q@T+[&y#S@Q@p%S@q@5@}&|&1&2&i$3&4&5&6&9+X$o Z N T V.^+, Z Y ,.N N ,.T 7&",
"2 8.O N N N Z w.M+B@i X O Y 7+d+;%=#Q@h#h#8&}@7%_&/%T@}#|##%l#Q@L@m@J%_&y#5@y#1#9&0&> a&b&c&d&e&d#e.P T ]#>.^+6.Z ,.N P N Y e.d+",
"U$y N N N N T _.<+G#X N d._.t#d@'&5@Q@2@2@T@w#H%[#5@T@}#|#:@S@Q@2@/%3@Q@y#h#q@f&g&h&i&j&'@k&l&m&n&_+C.w.'.E.o+[.Y N N &.Z U F.> ",
"B@Z Z N ]#U e.T A@R%_.>.C.{%i.c@o&5@q@|@/%|@w#H%T@5@_%o@h#1#p&|#$#|@3@T@y#,#Q@f&q&r&W%f#&%K#s&t&u&{#C._.>.Y.6.Z.e@H.U P `.C.<+c@",
"d+K+P P e.@+`./&I.9+, ^+o+}.d+F+v&I#Q@Q@h#|@i#-&T@m@L@h#,#:@I%}&Q@w&r@N@t@/%t@x&y&z&*%,#2@@%A&}$B&l+^+4.}.Z.9+d+@+}+G$_.z@C.U.(+",
"(+^+C&{.2.{#W.{#> g%D&c#H++.Y.m+v&E&=&y#L@|#i#F&T@5@L@$#o@G&N@@#Q@T@$@3#o@m@o@H&/+I&J&K&K&9&L&l&X+M&C%C%n w.d+1%I.h.<+h.7+~@o+p+",
"(+N&O&y.P&_ ++1 , ^#7 ;.Q&Q&{%9+R&:#Q@y#v#A#K#H%l#5@L@g#5@S&T&|@_&U&$@V&=#m@5@E&W&X&Y&Z&`& *.*(+@& $Z+U T e@^+d@$  .K.+*P&~ B&F+",
"@*.$W #*%.^.`+J+$*F$.$N ,.X k.9+o&k@o@h#}&|#%*&*l#,#L@T@i#S&n#y#}&y#**T&y#}&|@m@b%U+d+u&L%> x@N+@&x+i N Y G$c.=*h d R.d K %.Y.c@",
"' D+h '.N N O Y _.b#g &.e.X g.m+-*K#,#j@V@y#H@^%T@L@2@-#E&G&6%=#4@_%R@;*y#@#o@q@p#}&>*w@G@:@R+,*@&'*X N N T _+;+N ,.Y Z _.,.H.X#",
")*b+N N N Y e.U _.b#.$C.Z O | m+-%%@!*:#H&_%7@w#~*|@=#=&K#:@{*|#2@V%]*l#_%m@/%o%H@}#_%_%|@2@*@^*F+b+X N s#e@2.x.N N O '+N N H.X#",
"[$b.U N N Z _.T h+F$.$N N Y A.(+1%/*(*_*=$_**$*$(*:*_*<*(*:*%$(*[*}*(*_**$(*'$*$(*:*_*(*_*}$|*E$X+;.T T e.*+4.x.T N N N N N w.[ ",
" +Z e.d.N N N N X.b#.$d.N T 1*(+W$8$2*g$3*3$3$d$d$3$3$3$3$3$3$3$0$4*5$3$3$5*6*3$3$d$d$3$3$7*}*8*f@w.C.P [+7+4.^+^ N N N N Z g.~+",
" +g+N N _.,.N U <+B@]#Y.#+w.2.c@6.Q$9*0*a*p$v$t$x$w$b*x$v$B$v$w$c*M$p$v$u$d*A$p$v$t$e*f*g*N$v$P$F+*+e._.*+<+d+7._.Z Z U T f.W.(+",
"B.U T _.U Z T X.{+c@.+[.%+9#[ p+8+K$N$6+h*M$M$v$p$P$P$H$H$v$p$i*3.K$p$x$p$K$j*Q$M$p$p$L$k*H$M$l*F+[.`$& m*n*c@Z.*+f.>.*+*+*+/*(+",
" #:+f.Y.:+>.`.V.I.2 C%Z#A 8 W#Z.n+o*4.5.o+^+Z.5+^+5+^+W$Z.}.}.}.}.}.}.}.^+W$^+}.Z.}.}.}.}.}..+m+p*!#S$%.b X ^+(+t#M+h.[+M+Y.t#c@",
"> {#v.I.W.v.~@i.B.q*M 8.N $*F.Z.r*#%w@h@<@=%+#s*H@#@*%#@t*J%U@G@*%H@.#R+u*#@p#u@v*@%G@w*p#*%#@6#X+9 8.Y T U }.9+x*2.5+I.{#4.y*p+",
"(+N&' n$q*= - )*B.z*.$'+N Y :+ #*%A*}@V@i#V@&%*@2@K#m@V@4@,@$#i#j@5@p%,#4@K#m@m@_@B*m@V@w#%@R+V#X+k ;.X N e.}.6 4 2 $ . < & B.9+",
"5 J+.$`@D+k g t._.`$h U N N /# +@%C*q@g#@#o@V@D*E*T#y#o@A#F**#o@m@y#$@G*A#}&Q@|@<@H*,#,#,#:#H@,*)%e ;.,.N H.^+-+_.^.D+f G W e.d+",
"I*D%O ]#N N H.P Y  #{%X.N Y >.[$g@:#o@@#m#o@J*j#P@2@q@A#h#K*n@t@o@|@v*n@L@m@y#E*U@5#P@2@|@,#%@q#X+J+_.T &.>.}.l$Q&L*X &.Y ,.M*Y#",
"`$L*N N T `._.N T   *+e.e.T >.B.<@m@o@w#@#|@K#w#t@@#y#$#/%T+_&y#h#|#3@-#A#T#h#,#p#_&N*:#L@h#%@^*p*T T Y U *+6.;+;.Z N N N N T B.",
"`$D%T $&U T Y N >.d+U.=+*+V.:+[.G@:#5@&%m@L@K#[@h#E&l@:#2@K*O@5@v@y#O*2@m#P*v#}&=%y#L@&%L@m#%@^*F+:+_.w.f.Y..+++N Y N N Z 0.>. #",
" +D.T e.Z ,.N T U.1%4.4.{#{#^+[ ,@1#T+Q*>@A*S+R#A*Q*R*G&6@S*T*%@p#U*&&;@%@V*W*R*X*Y*H@R+Z*H@U#k&]@c.{#I.{#^+~+$+w.&.Y &.C.e.f.o*",
"B.P ,.N ,.U ,._.W.6 k.`*~# =.= =|+, 0.b++=@=#=X@O `@$=$=$=%=&=i%Z+*=D%==$ !#%=$=c#-.@=-=k%y.^+e%c#;=$=~#!#$* +.+:+U _.O _.e.e@ #",
"4 e.T Z Y w.C.z+v.} y T.+.J+*.D._./+^.h h h h X N X ;.h Z+Y$+.h &.Z ,.<.P&^.Y$+.O.T.T.h%h C.9#!#a b+b+h%J+N _+.+)+f.U T C.z+*+d+",
"d+=+*+$*T _.f.=+v.`$^.N >=i Y Z U 9#J.Z Z N Z @.N Y Y Y Y Q&O Y N N Y ^ $*i '.N N N N N Y H.; O.b+N N ,.Y U !+}.*+e+V.e@f.F.h.d+",
"d+*+@+e@C.[+*+Y.~%,=w.X.G$e.P N e@4.z+X._.T Z Y b.U ]#P _.P Z U U Z e.{#-+U Y &.Y N d._.P e.4.C.w.P Z h+@+f.{.}.[+}+V.*+C.C.*+d+",
"~+'={+<+7+~%i.I.6.Z.=+}+V.*+f.e.i.)=}+z+@+N e@:+Y.V.F.>.C.Y.j.f.C.c+}+5+'=>.w.C._._.F.Y.f.U.5+[+V.z+G$` z@C.3. #i.[+/*h.<+A@4.1%",
"9+~+[ d+d+[ ~+~+9+1% #Z.Z.Z.Z.x*X#9+ #Z. #o+d+X#d+ # #y@Z.l+!= #y@ #~=1%[ ,=Z. #, [.d+l+ #d+c@)= # # #B.Z.Z.c@n+~+ #!=d+d+[ n+]@"};
