/* XPM */
static char * door_xpm[] = {
"64 64 100 2",
"  	c #FF7300",
". 	c #1C0700",
"+ 	c #000000",
"@ 	c #381300",
"# 	c #552100",
"$ 	c #682A00",
"% 	c #893B00",
"& 	c #AA4A00",
"* 	c #C55700",
"= 	c #E66700",
"- 	c #FE7300",
"; 	c #4B1D00",
"> 	c #9F4500",
", 	c #DF6400",
"' 	c #702E00",
") 	c #D05D00",
"! 	c #833800",
"~ 	c #E96900",
"{ 	c #773200",
"] 	c #B34F00",
"^ 	c #AF4D00",
"/ 	c #A84900",
"( 	c #964100",
"_ 	c #7A3300",
": 	c #351200",
"< 	c #2E0F00",
"[ 	c #FE7200",
"} 	c #C25600",
"| 	c #783200",
"1 	c #B75100",
"2 	c #E46600",
"3 	c #8D3C00",
"4 	c #D25E00",
"5 	c #451A00",
"6 	c #0D0200",
"7 	c #D65F00",
"8 	c #EC6A00",
"9 	c #632800",
"0 	c #4D1E00",
"a 	c #F56E00",
"b 	c #EE6B00",
"c 	c #532000",
"d 	c #9D4400",
"e 	c #DD6300",
"f 	c #EA6900",
"g 	c #A14600",
"h 	c #A34700",
"i 	c #EF6C00",
"j 	c #160400",
"k 	c #260B00",
"l 	c #F76F00",
"m 	c #913E00",
"n 	c #D05C00",
"o 	c #F46E00",
"p 	c #5F2600",
"q 	c #FA7000",
"r 	c #943F00",
"s 	c #AB4B00",
"t 	c #BD5300",
"u 	c #CE5C00",
"v 	c #C45600",
"w 	c #C75800",
"x 	c #C85900",
"y 	c #C05500",
"z 	c #C65800",
"A 	c #C45700",
"B 	c #C15500",
"C 	c #CA5900",
"D 	c #B44F00",
"E 	c #D25D00",
"F 	c #A04600",
"G 	c #E26500",
"H 	c #F06C00",
"I 	c #FD7200",
"J 	c #3D1600",
"K 	c #E16500",
"L 	c #873A00",
"M 	c #B95100",
"N 	c #CE5B00",
"O 	c #471B00",
"P 	c #7D3400",
"Q 	c #F66F00",
"R 	c #BE5400",
"S 	c #E36500",
"T 	c #9B4300",
"U 	c #E06400",
"V 	c #A94A00",
"W 	c #984200",
"X 	c #7F3600",
"Y 	c #722F00",
"Z 	c #2A0D00",
"` 	c #B95200",
" .	c #FC7200",
"..	c #321000",
"+.	c #F16C00",
"@.	c #883A00",
"#.	c #662A00",
"$.	c #863900",
"%.	c #A24600",
"&.	c #F97000",
"                                                                                                                                ",
"                                                                                                                                ",
"                                                                                                                                ",
"                                                                                                                                ",
"                                                                                                                                ",
"                                                                                                                                ",
"                                                                                                                                ",
"                                                                                                                                ",
"                                                                                                                                ",
"                                                                                                                                ",
"                                . + + + + + + + + + + + + + @ # $ % & * = -                                                     ",
"                                . + + + + + + + + + + + + + + + + + + + + ; > ,                                                 ",
"                                . + + + + + + + + + + + + + + + + + + + + + + + ' )                                             ",
"                                . + + + + + + + + + + + + + + + + + + + + + + + + + ! ~                                         ",
"                                . + + + + { ] ] ] ] ] ] ] ^ / ( _ : + + + + + + + + + < )                                       ",
"                                . + + + + &                       [ ~ } | + + + + + + + + 1                                     ",
"                                . + + + + &                               2 3 + + + + + + + }                                   ",
"                                . + + + + &                                   4 5 + + + + + 6 7                                 ",
"                                . + + + + &                                     8 9 + + + + + 0 a                               ",
"                                . + + + + &                                       b c + + + + + d                               ",
"                                . + + + + &                                         e 6 + + + + + f                             ",
"                                . + + + + &                                           g + + + + + h                             ",
"                                . + + + + &                                           i j + + + + k l                           ",
"                                . + + + + &                                             m + + + + + 4                           ",
"                                . + + + + &                                             n + + + + + >                           ",
"                                . + + + + &                                             o + + + + + p                           ",
"                                . + + + + &                                               p + + + + + q                         ",
"                                . + + + + &                                               r + + + + + =                         ",
"                                . + + + + &                                               s + + + + + 7                         ",
"                                . + + + + &                                               t + + + + + u                         ",
"                                . + + + + &                                               v + + + + + w                         ",
"                                . + + + + &                                               x + + + + + y                         ",
"                                . + + + + &                                               z + + + + + A                         ",
"                                . + + + + &                                               B + + + + + C                         ",
"                                . + + + + &                                               D + + + + + E                         ",
"                                . + + + + &                                               F + + + + + G                         ",
"                                . + + + + &                                               _ + + + + + H                         ",
"                                . + + + + &                                             I < + + + + J -                         ",
"                                . + + + + &                                             K + + + + + L                           ",
"                                . + + + + &                                             ] + + + + + M                           ",
"                                . + + + + &                                           I c + + + + + =                           ",
"                                . + + + + &                                           N + + + + + 9                             ",
"                                . + + + + &                                         q p + + + + + }                             ",
"                                . + + + + &                                         / + + + + + O l                             ",
"                                . + + + + &                                       w + + + + + + *                               ",
"                                . + + + + &                                     v 6 + + + + + P I                               ",
"                                . + + + + &                                 Q d + + + + + + 5 i                                 ",
"                                . + + + + &                             l R O + + + + + + @ S                                   ",
"                                . + + + + &                       H u T < + + + + + + + O U                                     ",
"                                . + + + + { ] ] ] ] ] ] ^ V W X 5 + + + + + + + + + + Y b                                       ",
"                                . + + + + + + + + + + + + + + + + + + + + + + + + Z `  .                                        ",
"                                . + + + + + + + + + + + + + + + + + + + + + + ..& +.                                            ",
"                                . + + + + + + + + + + + + + + + + + + + k @.x l                                                 ",
"                                . + + + + + + + + + + + 6 ..O #.$.%.B e &.                                                      ",
"                                                                                                                                ",
"                                                                                                                                ",
"                                                                                                                                ",
"                                                                                                                                ",
"                                                                                                                                ",
"                                                                                                                                ",
"                                                                                                                                ",
"                                                                                                                                ",
"                                                                                                                                ",
"                                                                                                                                "};
