/* XPM */
static char * fake_wall_xpm[] = {
"64 64 562 2",
"  	c #1B191E",
". 	c #262324",
"+ 	c #2B2727",
"@ 	c #2C2828",
"# 	c #2D2828",
"$ 	c #272425",
"% 	c #2A2626",
"& 	c #2A2727",
"* 	c #2A2627",
"= 	c #282526",
"- 	c #282425",
"; 	c #292626",
"> 	c #292526",
", 	c #252124",
"' 	c #1D1A1F",
") 	c #1E1B1F",
"! 	c #262325",
"~ 	c #2C2728",
"{ 	c #2D2928",
"] 	c #252224",
"^ 	c #232023",
"/ 	c #201D21",
"( 	c #19171C",
"_ 	c #292627",
": 	c #282525",
"< 	c #211E21",
"[ 	c #1A181E",
"} 	c #1F1C1F",
"| 	c #332F2E",
"1 	c #3A3532",
"2 	c #3B3532",
"3 	c #383330",
"4 	c #33302E",
"5 	c #35322F",
"6 	c #363F30",
"7 	c #3F5333",
"8 	c #435534",
"9 	c #3B4A32",
"0 	c #353C2F",
"a 	c #393431",
"b 	c #383331",
"c 	c #36322F",
"d 	c #302C2C",
"e 	c #231F23",
"f 	c #363230",
"g 	c #393432",
"h 	c #3B3632",
"i 	c #3B3633",
"j 	c #3A3533",
"k 	c #34312E",
"l 	c #2F2B2B",
"m 	c #292528",
"n 	c #19161C",
"o 	c #2A2728",
"p 	c #34302E",
"q 	c #322F2D",
"r 	c #332F2D",
"s 	c #2A2628",
"t 	c #1F1C20",
"u 	c #345331",
"v 	c #356733",
"w 	c #346532",
"x 	c #326431",
"y 	c #355030",
"z 	c #33302D",
"A 	c #312E2C",
"B 	c #2C2929",
"C 	c #282426",
"D 	c #35312F",
"E 	c #322E2D",
"F 	c #312D2C",
"G 	c #2B2729",
"H 	c #18161C",
"I 	c #373230",
"J 	c #2C2829",
"K 	c #1E1C1F",
"L 	c #30362C",
"M 	c #28522C",
"N 	c #2D452D",
"O 	c #32312D",
"P 	c #2C292A",
"Q 	c #322E2C",
"R 	c #2F2C2C",
"S 	c #2D292A",
"T 	c #302D2C",
"U 	c #32302D",
"V 	c #322F2C",
"W 	c #302C2B",
"X 	c #2D3C2B",
"Y 	c #26462B",
"Z 	c #2E3F2C",
"` 	c #2E2A2B",
" .	c #2F2C2B",
"..	c #2A2629",
"+.	c #2C282A",
"@.	c #2D2A2A",
"#.	c #2E3C2C",
"$.	c #2C432C",
"%.	c #33312D",
"&.	c #323A2E",
"*.	c #32352D",
"=.	c #2B2629",
"-.	c #1C191E",
";.	c #2E2B2B",
">.	c #2F402D",
",.	c #2C482D",
"'.	c #31432E",
").	c #2D6530",
"!.	c #2D5E2F",
"~.	c #2B452C",
"{.	c #282527",
"].	c #211E22",
"^.	c #221F22",
"/.	c #2B282A",
"(.	c #313F2E",
"_.	c #31442E",
":.	c #30442E",
"<.	c #2D512F",
"[.	c #29482B",
"}.	c #26512B",
"|.	c #283E2A",
"1.	c #2A332A",
"2.	c #272427",
"3.	c #201D22",
"4.	c #33322D",
"5.	c #324E2F",
"6.	c #2B582E",
"7.	c #224929",
"8.	c #263D29",
"9.	c #2A312A",
"0.	c #2A2829",
"a.	c #262226",
"b.	c #1F1C21",
"c.	c #272326",
"d.	c #2B272A",
"e.	c #232024",
"f.	c #272426",
"g.	c #282427",
"h.	c #252125",
"i.	c #1D1B1F",
"j.	c #272327",
"k.	c #2A2528",
"l.	c #2D322B",
"m.	c #263C29",
"n.	c #243A28",
"o.	c #2C2C2A",
"p.	c #231F24",
"q.	c #2B2829",
"r.	c #1B181E",
"s.	c #1A181D",
"t.	c #252225",
"u.	c #262225",
"v.	c #242125",
"w.	c #252226",
"x.	c #273C28",
"y.	c #234428",
"z.	c #222F25",
"A.	c #262326",
"B.	c #242124",
"C.	c #1C191F",
"D.	c #19171D",
"E.	c #1E1B20",
"F.	c #242025",
"G.	c #242024",
"H.	c #221F23",
"I.	c #1C1A1F",
"J.	c #224226",
"K.	c #214426",
"L.	c #1C1F1F",
"M.	c #1A171D",
"N.	c #1B181D",
"O.	c #342F2D",
"P.	c #332E2D",
"Q.	c #332E2C",
"R.	c #322D2C",
"S.	c #2E2A29",
"T.	c #2E2B2A",
"U.	c #222023",
"V.	c #274529",
"W.	c #2B482B",
"X.	c #2E2A2A",
"Y.	c #2B2828",
"Z.	c #2A2828",
"`.	c #2D2929",
" +	c #1E1C20",
".+	c #363130",
"++	c #3E3835",
"@+	c #1C1A1E",
"#+	c #2D472D",
"$+	c #2E4A2E",
"%+	c #35302F",
"&+	c #342F2E",
"*+	c #302B2B",
"=+	c #353830",
"-+	c #363630",
";+	c #373330",
">+	c #2D462D",
",+	c #2C492C",
"'+	c #302B2A",
")+	c #2F3F2D",
"!+	c #36312F",
"~+	c #2A3E2A",
"{+	c #28432A",
"]+	c #303A2D",
"^+	c #2C492D",
"/+	c #2E3F2D",
"(+	c #2B472C",
"_+	c #30332C",
":+	c #2E362B",
"<+	c #2A482B",
"[+	c #28492B",
"}+	c #2F482E",
"|+	c #2C4D2D",
"1+	c #2E422C",
"2+	c #2A472B",
"3+	c #264D2A",
"4+	c #2D382B",
"5+	c #292527",
"6+	c #26522B",
"7+	c #264B2A",
"8+	c #302D2B",
"9+	c #2A372A",
"0+	c #254929",
"a+	c #2A392A",
"b+	c #242023",
"c+	c #29432A",
"d+	c #234E29",
"e+	c #253727",
"f+	c #2D3A2B",
"g+	c #2D432B",
"h+	c #2F372C",
"i+	c #242123",
"j+	c #292628",
"k+	c #1F1B20",
"l+	c #2A2729",
"m+	c #223926",
"n+	c #204327",
"o+	c #253027",
"p+	c #272526",
"q+	c #314F2F",
"r+	c #30472D",
"s+	c #202823",
"t+	c #224127",
"u+	c #273F29",
"v+	c #2C272A",
"w+	c #2F382C",
"x+	c #2F342C",
"y+	c #304F2E",
"z+	c #2D442C",
"A+	c #1F1D21",
"B+	c #203424",
"C+	c #234A28",
"D+	c #292428",
"E+	c #221E23",
"F+	c #244029",
"G+	c #273B29",
"H+	c #2A422B",
"I+	c #221F24",
"J+	c #1D1B20",
"K+	c #2A2529",
"L+	c #211D22",
"M+	c #1F3E24",
"N+	c #214927",
"O+	c #1F2F23",
"P+	c #211E23",
"Q+	c #274C2A",
"R+	c #28552C",
"S+	c #223A25",
"T+	c #214425",
"U+	c #224726",
"V+	c #1A171C",
"W+	c #1B211E",
"X+	c #234727",
"Y+	c #203B24",
"Z+	c #2F4E2E",
"`+	c #2F532E",
" @	c #3D3734",
".@	c #3C3733",
"+@	c #3C3633",
"@@	c #344F30",
"#@	c #344830",
"$@	c #33312E",
"%@	c #383431",
"&@	c #34312F",
"*@	c #2C4A2D",
"=@	c #224B29",
"-@	c #263728",
";@	c #3C3734",
">@	c #2F502E",
",@	c #2B3C2B",
"'@	c #2A3F2A",
")@	c #2E4B2E",
"!@	c #29462B",
"~@	c #2D2F2A",
"{@	c #2B2728",
"]@	c #413A37",
"^@	c #2D522E",
"/@	c #2B552E",
"(@	c #26462A",
"_@	c #283C29",
":@	c #2E4B2D",
"<@	c #2E442C",
"[@	c #312E2D",
"}@	c #31312C",
"|@	c #29452B",
"1@	c #293F2A",
"2@	c #2E2F2B",
"3@	c #314A2F",
"4@	c #314B2E",
"5@	c #2F442D",
"6@	c #2D462C",
"7@	c #30312C",
"8@	c #29432B",
"9@	c #2C3D2B",
"0@	c #2E3A2C",
"a@	c #2A452B",
"b@	c #2D3A2C",
"c@	c #2B3F2B",
"d@	c #2C3E2C",
"e@	c #29422B",
"f@	c #2E2D2B",
"g@	c #2E352B",
"h@	c #2C452C",
"i@	c #254529",
"j@	c #2A3529",
"k@	c #30492E",
"l@	c #2F542F",
"m@	c #2D482D",
"n@	c #2E392C",
"o@	c #27452A",
"p@	c #2A2B29",
"q@	c #2C3E2B",
"r@	c #2A4E2B",
"s@	c #274B2A",
"t@	c #27472A",
"u@	c #29402B",
"v@	c #29472B",
"w@	c #27432A",
"x@	c #282428",
"y@	c #1D1A20",
"z@	c #272F27",
"A@	c #273628",
"B@	c #244228",
"C@	c #234628",
"D@	c #253226",
"E@	c #282D27",
"F@	c #2A402A",
"G@	c #224227",
"H@	c #203E25",
"I@	c #1E2821",
"J@	c #1E3D24",
"K@	c #1E3E24",
"L@	c #223424",
"M@	c #284F2B",
"N@	c #27502A",
"O@	c #312C2B",
"P@	c #273527",
"Q@	c #263927",
"R@	c #201E22",
"S@	c #2F2B2A",
"T@	c #2F2A2A",
"U@	c #282626",
"V@	c #233425",
"W@	c #1E4125",
"X@	c #1C211F",
"Y@	c #1F3D23",
"Z@	c #26562B",
"`@	c #254328",
" #	c #211F22",
".#	c #2F3C2C",
"+#	c #242A24",
"@#	c #253826",
"##	c #2D2829",
"$#	c #2C332A",
"%#	c #203925",
"&#	c #1F2E23",
"*#	c #1E3923",
"=#	c #224928",
"-#	c #2B362A",
";#	c #1F1D20",
">#	c #34302D",
",#	c #313D2D",
"'#	c #2F3C2D",
")#	c #2C2C29",
"!#	c #274029",
"~#	c #2C552E",
"{#	c #31492E",
"]#	c #282C27",
"^#	c #1F3724",
"/#	c #1F3F26",
"(#	c #233B27",
"_#	c #2C3F2B",
":#	c #254829",
"<#	c #2B3C2A",
"[#	c #201E21",
"}#	c #1B3220",
"|#	c #224027",
"1#	c #2C322A",
"2#	c #2C472C",
"3#	c #234927",
"4#	c #272E27",
"5#	c #1C3521",
"6#	c #274229",
"7#	c #224426",
"8#	c #1D3722",
"9#	c #29452A",
"0#	c #31312D",
"a#	c #31302C",
"b#	c #274129",
"c#	c #214226",
"d#	c #1D3822",
"e#	c #28442A",
"f#	c #2D3E2C",
"g#	c #2A3C2B",
"h#	c #292B28",
"i#	c #263F29",
"j#	c #204125",
"k#	c #232624",
"l#	c #1D3C23",
"m#	c #283A2A",
"n#	c #253627",
"o#	c #253E28",
"p#	c #204025",
"q#	c #211F23",
"r#	c #203524",
"s#	c #1F4926",
"t#	c #223925",
"u#	c #203C25",
"v#	c #1F3F25",
"w#	c #272325",
"x#	c #1F3924",
"y#	c #214527",
"z#	c #232123",
"A#	c #191A1D",
"B#	c #1F4326",
"C#	c #403A36",
"D#	c #3E3834",
"E#	c #2E4C2E",
"F#	c #25512A",
"G#	c #2A3C2A",
"H#	c #2D2A29",
"I#	c #312D2D",
"J#	c #3F3935",
"K#	c #3D3834",
"L#	c #363330",
"M#	c #393632",
"N#	c #2C3C2B",
"O#	c #244328",
"P#	c #234B29",
"Q#	c #253427",
"R#	c #201D20",
"S#	c #3B3533",
"T#	c #30412D",
"U#	c #25502A",
"V#	c #243F27",
"W#	c #221E21",
"X#	c #2A492C",
"Y#	c #2F2F2B",
"Z#	c #2E422D",
"`#	c #254D2A",
" $	c #273028",
".$	c #304F2F",
"+$	c #1D1A1E",
"@$	c #35312E",
"#$	c #2C3B2B",
"$$	c #244027",
"%$	c #2C2D29",
"&$	c #28422A",
"*$	c #28402A",
"=$	c #30452E",
"-$	c #2B482D",
";$	c #2E322C",
">$	c #26472A",
",$	c #2F352C",
"'$	c #283729",
")$	c #264129",
"!$	c #29442B",
"~$	c #233D28",
"{$	c #2B3A2B",
"]$	c #283A29",
"^$	c #2D412C",
"/$	c #2E312B",
"($	c #293929",
"_$	c #244829",
":$	c #29412B",
"<$	c #2A382A",
"[$	c #2B2D29",
"}$	c #312F2C",
"|$	c #2D3D2C",
"1$	c #2D432D",
"2$	c #2D442D",
"3$	c #2D2A2B",
"4$	c #31342C",
"5$	c #224A28",
"6$	c #273828",
"7$	c #2F2D2B",
"8$	c #30352C",
"9$	c #2B402C",
"0$	c #254229",
"a$	c #2B3A2A",
"b$	c #2A4D2C",
"c$	c #2D4E2D",
"d$	c #2F412D",
"e$	c #2D3B2B",
"f$	c #264429",
"g$	c #2D2E2A",
"h$	c #2B392B",
"i$	c #203C26",
"j$	c #242C26",
"k$	c #293E2A",
"l$	c #27502B",
"m$	c #294C2C",
"n$	c #2A3D2A",
"o$	c #29402A",
"p$	c #243226",
"q$	c #233A26",
"r$	c #234528",
"s$	c #234728",
"t$	c #233025",
"u$	c #1E1B21",
"v$	c #244428",
"w$	c #214026",
"x$	c #1E1F21",
"y$	c #1E1C21",
"z$	c #201C21",
"A$	c #221E22",
"B$	c #223F26",
"C$	c #214526",
"D$	c #1E2020",
"E$	c #28472A",
"F$	c #274429",
"G$	c #252223",
"H$	c #252324",
"I$	c #274228",
"J$	c #264629",
"K$	c #2F4B2E",
"L$	c #2F492E",
"M$	c #2E462D",
"N$	c #31322D",
"O$	c #2D4C2D",
"P$	c #37312F",
"Q$	c #2E432C",
"R$	c #2B462C",
"S$	c #2F312B",
"T$	c #2C402C",
"U$	c #224829",
"V$	c #283329",
"W$	c #2C392A",
"X$	c #232022",
"Y$	c #2C382A",
"Z$	c #263E28",
"`$	c #292427",
" %	c #2B3D2B",
".%	c #273E2A",
"+%	c #293729",
"@%	c #233E27",
"#%	c #242725",
"$%	c #263527",
"%%	c #203D25",
"&%	c #18151C",
"*%	c #18151B",
"=%	c #17151B",
"  . + @ # @ @ + $ % & * % + = $ $ - % ; > , ' ) ! + # @ @ @ ~ > @ { { { { @ + ] ^ / ( / _ + + # # # + $ . . : @ @ + + . . ] < [ ",
"} | 1 2 2 1 1 3 4 5 3 6 7 8 9 0 4 5 a b c d e ] | 1 1 1 1 1 1 f g 1 h i j g a k l m n o g a a i h i g p q | k 1 1 g a 4 r q s t ",
"} q q q r r r r r r r u v w x y z r r q A B e C D r r q q q q q q q q q q E F F F G H r I z r q q r r r q q q q r r q r r q J / ",
"K q r q q q q q r q r r z L M N O r q q A P ^ ! Q q q q q q q q q q q q q R S S T o n p r r r r q U r r q q Q Q q r q q q Q J / ",
"K V q q l J W q q r q r r r X Y Z z r q q S e ! V q q q A ` q q q q q q q q q Q  ...n z r r r q r q r q q d +.@.q r r q q G m / ",
") A q q q q q r q r r r r r r #.$.%.&.*.E @.^ ! Q q q q q q q q q q q q q q q F G m n r q q q q q q r q q q V q q q r q q =.m t ",
"-.s ;.V q q q r q r r q q z z >.,.'.).!.~.{.].^./.q q q q q q q q q q q q q Q T s {.n q r q q q q q q q q q q q q q q Q +...m t ",
"-.m G ;.q q q q q q q r q (._.:.<.[.}.|.1.2.3.].G q q q q q q q q q ` S d E  .+...2.n P J  .q q q q q q q q E V V q A +.....m t ",
"-.{...S V q q q V W J W q 4.5.6.7.8.9.0...a.b.t c.G J V q q q q q q A F A l d.=.m e.( f.m J T A Q d P +.+.+.J J P A F G ..g.h.i.",
"  j...G +.J J J +.G k.G +.S l.m.n.o.G ..h.b.  ' p.s ..q.G d.G d.+.+.+.q.+.G ....g.3.( ].2...=.G G G ..............+.+.=...g./ r.",
"s.3.t.u.a.h.v.v.v.h.v.h.w.a.x.y.z.A.a.B.3.C.D.r.E.F.v.F.G.v.F.v.h.h.h.h.h.t.h.h.H.' D.E.G.h.h.h.h.h.v.v.v.v.h.h.h.h.h.h.h.e.I.D.",
"( r.I.' I.C.-.C.C.I.' ' ' ' J.K.L.' ' C.r.D.H D.s.C.C.C.C.-.-.-.I.I.' I.' ' ' C.  M.n r.-.C.C.' C.C.-.-.C.-.-.I.I.C.C.-.C.  D.n ",
"N.- O.P.Q.P.R.S.T.& b.-.U.t.V.W.W R.R.R.F R.R.Q R.F X.Y.Y.Z.`.l S.u.i.t ] `.Q Q Q Q Q Q Q.Q.P.Q.P.P.X.C <  +* Q.P.P.Q.R.Y._ ^ -.",
"t .+++b I f f D D T U.@+s  .#+$+5 f f %+| &+c f f c k z z 4 4 D k J / *+.+D f c f I I I I I =+-+;+;+p  .! * I f ;+I f c r q o t ",
"t D I 4 q q q q q  .H.) T.q >+,+q U q T l d q q q q q q r z q q r S ].'+c r q q q q q q q q >+)+q q q F = > !+q q q r q q q s t ",
") E q q  .R q q q W B.i.`.d ~+{+]+^+/+q q q q q q q q q ` ;.q q q S ].& r q q r q q q q q q ,+(+_+q q Q * ] E q q q q q q q _ t ",
"K q q q d F q q q W ] ' o :+<+[+}+|+1+q q q q q q q q q l  .q q q S ].+ q r q q E T q q r q 2+3+4+V Q  .$ . q q q T F r q q 5+ +",
"K Q q r q q q q q  .] @+s $.6+7+}+q q q q q q q q q q q q q q q 8+J < & q q q q Q ;.q q q q 9+0+a+l F J b+] q q Q ;.l q q l C t ",
"i.T. .Q q q V V F B ^   c.c+d+e+q q q q q q q A T q q T q q V T G s < & q q q q q q q q q q  .f+g+h+;.m e i+W Q q q q q  .j+f.k+",
"-...l+F V Q A F X.c.^.r.H.m+n+o+A q q A F F F ;.+.V Q S A V T G {.A.t p+T E q q q q q F F F q q q+r+P m H./ .. .V q q F ..s c.E.",
"-.m .. .A A J m m A.].s.s+t+u+G S T 8+S G =.=.l++.F F T T W ....2.e.' e.J W T Q Q Q F d.G v+w+x+y+z+s c.3.b.g.s T T W ....m t.) ",
"r.a.m ......g.h.G.H.A+M.B+C+u+..k.m m m k...k...............D+D+E+3.-.3.A.m G ` ;.;.........F+G+|+H+m I+J+I.^ 2.k.m K+K+K+g.e.I.",
"M.b.].].].].].L+3.E.  D.M+N+O+].3.3.L+].].].].B.b+G.G.3.A+/ b.b.b.r.n   b.].E+E+P+].P+].P+E+].Q+R+S+b.I.D.[ E.e.].].].E+H.3.-.M.",
"( ( ( ( M.( ( ( M.( D.D.T+U+M.D.( ( n n H ( ( M.M.V+( V+( ( ( D.( ( ( ( ( ( ( ( D.[ D.H ( D.M.W+X+Y+M.M.D.D.D.M.( ( ( ( ( ( M.s.",
"i.X.3 1 1 ;+1 i 1 k 4 z Z+`+k c f 5 D o E.^ P.++ @ @ @.@+@k z 4 p D D 4 4 4 p r T ^ M.S g +@.@i @@#@$@4 4 r k %@a 4 r r z z s / ",
"t &@i &@r q q q q U q *@=@-@q r z q q ` ].S.%@r q r r q r q q q q q q q q q q q A G n ;@4 r q q >@}+,@'@q q q q r r r q r q s t ",
"K z p r r q q q q q q )@!@~@q q q q q @.< {@p q q q q q q q q q q q q  .@.W q q A j+n ]@q q q q ^@/@(@_@q q q q q q q q q q * E.",
") Q q q q q q q q q q :@<@q q q q q q X.^.= q q q q q q q q q q q q q [@A A q q A g.H E q q q q }@|@1@2@q q q q q q q q q Q s  +",
"-.J q q q q q 3@4@q 5@6@7@q q q q q X.o < : q q q A @.q q q q q q q q q q q q q 8+c.H Q Q q q q q 8@9@q q q q q F ` q q V G f.) ",
"-.G V V V q V 0@a@b@c@d@q q q q V Q P m / $ q q q E F q q q q q q Q Q q q q V A J t.H G G F Q V q c+e@O q q T ` ;.A q V Q ..c.E.",
"-.s +.T Q Q X.f@g@h@i@j@q V Q ;.+.+.m c.t ^ J l E V V V Q Q Q Q Q X.@.T V Q W +.m B.H ....S ;.k@l@m@9@n@V V A W 8+Q V A S s A.) ",
"  2...+.S S ..+.l ,.o@p@l  .` G ....c.e.I.L+g.l+P S P J P S S P P ....+.S S G m m H.n g.k...G q@r@s@t@u@X.S S S S S S S G m t.' ",
"s.e c.g.m g.5+m m v@w@g.5+5+g.c.c.c.a.A+s.E.e.a.g.x@a.w.t.a.a.a.t.h.A.g.g.g.g.j.t.y@n ].a.j.g.g.z@A@B@C@D@v.f.E@F@m m m m h.].-.",
"D.C.E.t b.t t t t G@H@t t E.E.) ) ) E.r.n M.C.' k+t ' ' ' ' ' ' ' ' i.t t k+t E.' ( H N.' E.E.E.E.t I@J@K@I.L@M@N@b.b.b.b.' C.M.",
"  ! R.O@O@O@*+S._ P@Q@E@! R@].> S@*+'+W W W W O@*+'+T@`.& ; U@^ I./ = *+W '+'+'+T@; U@; & & & ; _ & C V@W@X@Y@Z@`@*+T@+ ; ;  #  ",
") | ++a a a %@f p %.)+.#B +#@#]+;+b b b %@a %@b b b ;+D z q q o t ##D b %@b b b c r q U 4 4 z r z z E $#%#&#*#=#-#I c p q V _ t ",
";#!+1 >#q q q q q U ,#'#)#!#~#{#q E R A r q q q q q q r r r q J / S@D r q q q q q q r q q q q q q q r Q ]#^#/#(#Q q q q q q * t ",
"K q q q q q q q q q q q _#:#<#q q A  .E q q q A T q q q r q q @.[#& q q q q q q q q q q q q q V q V T X.! }#|#1#q q q q q V _ t ",
"K q q q q q 8+Q q q q A 2#3#4#q q q q q q q q  .@.V q q q q W J / & E q q q q q q q T q q q q V V 8+X..., 5#6#A q q q q q Q * t ",
"K Q q q q Q ;.F q q q S 6#7#$ q q q q F A q q q q q q q q V m c.t & E q q F F q q Q l q q q V Q Q J ..m G.8#9#Q q q q q V S {.t ",
"' l  .Q q q V q q 0#a#J b#c#] T V V q l  .E q q q q q V W W m u.E.= d q q d W q q q q q q q V 8+ .q...m G.d#e#8+Q q V A  ...C t ",
"  g.k. .8+A A F F f#g#h#i#j#^.q. .F Q Q E V q A F T T 8+......t.' ^ G  .W F Q V Q Q T T F 8+W S ....m j.k#l#B@G W 8+W ;...s c.E.",
"s.H.m 5+s X.T.J s ..m#n#o#p#E.t.m ..l l S@l  .S s k.s s m m m H.C.].u.g.5+G l S@S@T.k.m k.k.s k.m m c.q#r#s#t#5+D+m m m m D+H.-.",
"M.b.2.C c.u.c.g.5+g.c./ u#v#  3.c.c.c.c.c.c.g.m m m m g.c.u.B.J+s.C.].c.c.c.c.w#c.c.C C C g.C c.j.g.A.].x#y#z#a.u.u.t.u.h.h.E.s.",
"n H H H H H H H H H H A#M+j#n n n H H H H H D.M.H H H H H H H H H H H n n H H n H H n D.n H H H H H H n d#B#n H H H H H H n ( n ",
"-.J C#++D# @+@a 3 ;@%@E#F#G#%@1 i +@h ;+4 z H#^.-.! I#J#J#D#D#K#D#K#K#;+L#%@f k p 4 h.-.^ I#2 ++D# @D#M#N#O#%.&@%@.@K#D 4 z 5+t ",
"t &+1 !+p p p 4 4 p z ^+P#Q#r z 4 4 4 z q q l ! R#b S#p p p p p p p p r | 4 r q q q s ' S I !+p p 4 4 T#U#V#q q z 4 4 q q q s t ",
"W#1 p r r q q q q q q ^+X#Y#n@f#q q q q q q  .A.< a k q q q q q q q q q q q q q q q g.' I D r q q q q Z#`# $V q q q q q q q {.E.",
"t %+q q q q .$'.q q q ^+,.h+9@L q q q q q q  .c.R#I q q q q q q q q q q q q A ` q q f.+$2 @$q q q q q #$$$%$h+&$*$q q q q q = ) ",
") A q q q q =$-$;$q 0@>$'@,$,$q q q q q q q  .!  +q q q q q q q q q q q q q E A q V f.@+S@q q q q q T '$)$0@!$~$4+q q q q V C E.",
") Q Q q q q V {$]$O ^$!$/$q q q q q q q q W s B.K E q q V q q q q q q q q q q q V A c.-.S@q q q q q  .($_$:$<$[$q q q q A Q C E.",
"@+G G F V q q }$N#|$1$2$q V q  .3$T q q q l 5+^ K A V Q @.A q V q q q q q q q q A q.u.-.S@q T#>.4$V A #$5$6$7$T q q q A J P f.E.",
"-.m ..G F Q Q V 8$9$0$'$W Q Q T  .F Q Q l q.g.^.' B W A l Q q V Q V V V V V Q F S g.e.N.= S a$b$c$d$}$e$f$g$A Q V V A ` ....c.t ",
"  j.m 5+{@J J @. .h$i$j$+.T.8+l T.;.X.X.J ..A. +-.c.G F A Q Q l X.X.X.;.;.;.` S m c.P+s.e.m s k$l$m$n$o$!#;.T.X.` ;.` l+....h.' ",
"s.].a.v.h.v.B.t.j.8.H@k#c.c.g.c.c.c.a.a.A.a.].s.s.].u.s o {@J m g.a.t.a.a.A.c.j.a.H.' D.b.h.a.t.p$q$r$s$t$j.A.A.c.c.c.A.a.t.b.r.",
"D.-.b.t t u$b.b.b.v$w$x$A+b.b.b.t b.b.y$b.E.C.n D.' z$/ ].].].].A$b.b.b.b.b.b.b. +' D.n   E.E.E. + +B$C$D$b.b.t b.b.b.b.b.E.s.D.",
"r.^ * = > > > > ! E$F$^./ ' ' ^.w#* * - - * * % > % = . ] G$t s.< C * * * > > H$] . > ; * * * = ] G$I$J$i+].I.s.< C * % ] i+].-.",
"t | I f ;+;+b ;+D K$L$` _ ^., [@D a a f f b %@b b b f p 4 q G ) R.b b b b b I 4 4 k I 3 b b b c r q M$,.A J ^ t I#f ;+I q q @.< ",
"t | q q q q q q N$O$m@J 2.].; f q q q q q q q q q q r q q Q J ) P$!+q q q q q q q q q q q q q q q q Q$R$S$Y.^ < D r q q q q S@^.",
"' l Q q q q q q T$U$V$G f.].] E q q q q q q q q q q V A l T.t.-.T.q q q q q q q q q q q q W l l ;.;.T W$!#5+].R#q q q V V W s / ",
"-.G  .W A q q q c@:$F o a./ X$l F Q q q V q Q A 8+W  .;.m g.B.-.B d T T F V q q V V F T T J =.s s ..T.Y$Z$c./  +l T A A 8+s `$b.",
"-.m k.k.W Q A A  %.%l 2.P+J+b.g.+.F Q Q Q A A  .s m m m g.c.e.-.a.m ....S Q Q Q A A =.........s m ..G +%@%B. +I.g.G S ` =...k./ ",
"s.e t.t.u.t.t.u.e+o##%H.  D.-.P+v.a.c.f.c.c.c.c.A.a.t.h.G.H.M.n 3.t.2.c.c.c.C C C g.g.g.g.g.g.g.g.g.f.$%%%J+r.r.H.h.t.u.u.h.H.I.",
"H &%&%H *%*%*%&%&%&%&%H H H H H &%&%&%&%*%*%=%*%*%*%=%=%*%*%H n H *%&%&%=%*%&%&%&%*%*%*%&%*%*%=%=%=%*%*%*%H H H &%H H H *%&%H n "};
