/* XPM */
static char * we_texture_xpm[] = {
"64 64 156 2",
"  	c #D7FD00",
". 	c #BADB00",
"+ 	c #000000",
"@ 	c #B6D600",
"# 	c #617400",
"$ 	c #1E2600",
"% 	c #D1F600",
"& 	c #667900",
"* 	c #D4F900",
"= 	c #252E00",
"- 	c #93AE00",
"; 	c #CCF000",
"> 	c #B2D200",
", 	c #101500",
"' 	c #98B400",
") 	c #738800",
"! 	c #ABC900",
"~ 	c #87A000",
"{ 	c #B7D700",
"] 	c #BBDC00",
"^ 	c #9FBC00",
"/ 	c #090C00",
"( 	c #CFF400",
"_ 	c #7D9400",
": 	c #3E4A00",
"< 	c #D6FC00",
"[ 	c #95B000",
"} 	c #C1E300",
"| 	c #B3D300",
"1 	c #D4FA00",
"2 	c #303A00",
"3 	c #BEE000",
"4 	c #647700",
"5 	c #748A00",
"6 	c #384400",
"7 	c #90AA00",
"8 	c #96B200",
"9 	c #D1F500",
"0 	c #A1BE00",
"a 	c #7E9500",
"b 	c #5C6D00",
"c 	c #93AD00",
"d 	c #5A6B00",
"e 	c #C2E400",
"f 	c #A8C600",
"g 	c #CDF200",
"h 	c #566700",
"i 	c #C2E500",
"j 	c #C8EC00",
"k 	c #3C4800",
"l 	c #C7EA00",
"m 	c #B1D100",
"n 	c #C8EB00",
"o 	c #364200",
"p 	c #D5FB00",
"q 	c #819800",
"r 	c #A4C200",
"s 	c #819900",
"t 	c #4A5900",
"u 	c #8DA700",
"v 	c #A5C300",
"w 	c #AAC900",
"x 	c #728700",
"y 	c #D0F500",
"z 	c #88A100",
"A 	c #CBEE00",
"B 	c #161C00",
"C 	c #B4D500",
"D 	c #C9ED00",
"E 	c #AFCE00",
"F 	c #CBEF00",
"G 	c #D2F700",
"H 	c #5B6C00",
"I 	c #B1D000",
"J 	c #91AC00",
"K 	c #516100",
"L 	c #CDF100",
"M 	c #B5D500",
"N 	c #505F00",
"O 	c #849D00",
"P 	c #5F7100",
"Q 	c #8CA600",
"R 	c #8AA300",
"S 	c #8CA500",
"T 	c #BCDE00",
"U 	c #CFF300",
"V 	c #92AD00",
"W 	c #495700",
"X 	c #B8D800",
"Y 	c #C3E500",
"Z 	c #283100",
"` 	c #D3F900",
" .	c #839B00",
"..	c #94AF00",
"+.	c #637600",
"@.	c #ACCB00",
"#.	c #799000",
"$.	c #B0CF00",
"%.	c #556500",
"&.	c #6B7F00",
"*.	c #869F00",
"=.	c #C6EA00",
"-.	c #CEF200",
";.	c #9AB600",
">.	c #CAEE00",
",.	c #6E8200",
"'.	c #A2BF00",
").	c #222A00",
"!.	c #BDDE00",
"~.	c #C7EB00",
"{.	c #5D6F00",
"].	c #6E8300",
"^.	c #8EA800",
"/.	c #2B3400",
"(.	c #AAC800",
"_.	c #97B200",
":.	c #C6E900",
"<.	c #586900",
"[.	c #A0BD00",
"}.	c #778D00",
"|.	c #849C00",
"1.	c #546400",
"2.	c #A3C000",
"3.	c #4D5C00",
"4.	c #C4E700",
"5.	c #3A4600",
"6.	c #C3E600",
"7.	c #829A00",
"8.	c #4F5E00",
"9.	c #7F9700",
"0.	c #404C00",
"a.	c #AECD00",
"b.	c #D5FA00",
"c.	c #323D00",
"d.	c #C9EC00",
"e.	c #687C00",
"f.	c #A9C700",
"g.	c #CEF300",
"h.	c #809800",
"i.	c #1B2100",
"j.	c #ADCC00",
"k.	c #89A200",
"l.	c #C0E200",
"m.	c #435000",
"n.	c #9DBA00",
"o.	c #8BA400",
"p.	c #526200",
"q.	c #6A7E00",
"r.	c #445200",
"s.	c #627500",
"t.	c #B9D900",
"u.	c #B8D900",
"v.	c #D3F800",
"w.	c #A3C100",
"x.	c #2D3700",
"y.	c #708500",
"                                                                                                                                ",
"                                                                                                                                ",
"                                                                                                                                ",
"                                                                                                                                ",
"                                                                                                                                ",
"                                                                                                                                ",
"                                                                                                                                ",
"                                                                                                                                ",
"                                                                                                                                ",
"                                                                                                                                ",
"                                                                                                                                ",
"                                                                                                                                ",
"                                                                                                                                ",
"                                                                                                                                ",
"                                                                                                                                ",
"                . + + + + @                             # + + + $ %                             & + + + &                       ",
"                * = + + + -                           ; + + + + + >                           % , + + + '                       ",
"                  ) + + + #                           ! + + + + + ~                           { + + + + ]                       ",
"                  ^ + + + / (                         _ + + + + + : <                         [ + + + = *                       ",
"                  } + + + + |                       1 2 + + + + + + 3                         4 + + + 5                         ",
"                  < 6 + + + 7                       . + + + : + + + 8                       9 , + + + 0                         ",
"                    a + + + b                       c + + + c + + + d                       @ + + + + e                         ",
"                    f + + + + g                     h + + + i : + + + j                     - + + + k <                         ",
"                    l + + + + m                   n + + + o p q + + + r                     # + + + s                           ",
"                      t + + + u                   v + + + a   w + + + x                   y / + + + w                           ",
"                      z + + + h                   5 + + + f   A + + + B y                 C + + + + D                           ",
"                      E + + + + F               G $ + + + n     H + + + I                 J + + + K                             ",
"                      L + + + + E               M + + + N       [ + + + O                 P + + + Q                             ",
"                        b + + + R               S + + + 7       T + + + 6 p             U + + + + >                             ",
"                        V + + + N               W + + + X       p 6 + + + T             | + + + / (                             ",
"                        @ + + + + D           Y + + + Z `          .+ + + ..            7 + + + +.                              ",
"                        % B + + + @.          ^ + + + #.          $.+ + + %.            b + + + 8                               ",
"                          &.+ + + *.          &.+ + + f           y , + + + =.        -.+ + + + .                               ",
"                          ;.+ + + W         ( , + + + >.            ,.+ + + '.        > + + + ).`                               ",
"                          !.+ + + + ~.      E + + + {.              '.+ + + ].        ^.+ + + )                                 ",
"                          1 /.+ + + (.      O + + + _.              :.+ + + , (       <.+ + + [.                                ",
"                            }.+ + + |.      : + + + !.                1.+ + + $.    g + + + + }                                 ",
"                            2.+ + + 3.    4.+ + + o p                 V + + + R     | + + + 5.<                                 ",
"                            6.+ + + + ;   v + + + 7.                  . + + + 8.    ..+ + + 9.                                  ",
"                            < 0.+ + + |   _ + + + a.                  b.c.+ + + d.  e.+ + + f.                                  ",
"                              7.+ + + [   6 + + / g.                    h.+ + + w ` i.+ + + n                                   ",
"                              ! + + + ) n + + + e.                      j.+ + + k.l.+ + + 8.                                    ",
"                              D + + + m.> + + + n.                      g./ + + {.f.+ + + o.                                    ",
"                                p.+ + + ^.+ + + e                         q.+ + B o.+ + + m                                     ",
"                                Q + + + r.+ + r.                          ^ + + + r.+ + + g.                                    ",
"                                m + + + + + + R                           4.+ + + + + + #                                       ",
"                                U / + + + + + |                             3.+ + + + + [                                       ",
"                                  s.+ + + + i.%                             7 + + + + + t.                                      ",
"                                  [ + + + + )                               u.+ + + + $ v.                                      ",
"                                  t.+ + + + w.                              * x.+ + + y.                                        ",
"                                                                                                                                ",
"                                                                                                                                ",
"                                                                                                                                ",
"                                                                                                                                ",
"                                                                                                                                ",
"                                                                                                                                ",
"                                                                                                                                ",
"                                                                                                                                ",
"                                                                                                                                ",
"                                                                                                                                ",
"                                                                                                                                ",
"                                                                                                                                ",
"                                                                                                                                ",
"                                                                                                                                "};
