/* XPM */
static char * wall_xpm[] = {
"64 64 386 2",
"  	c #252223",
". 	c #413C38",
"+ 	c #413D39",
"@ 	c #423D3A",
"# 	c #433E3A",
"$ 	c #433D3A",
"% 	c #3B3735",
"& 	c #302C2C",
"* 	c #1F1C1F",
"= 	c #373431",
"- 	c #3A3634",
"; 	c #3D3835",
"> 	c #2D2A2A",
", 	c #221E22",
"' 	c #1D1A1D",
") 	c #433E3B",
"! 	c #423E3A",
"~ 	c #33302E",
"{ 	c #1E1C1F",
"] 	c #272425",
"^ 	c #3C3835",
"/ 	c #373331",
"( 	c #423D39",
"_ 	c #222021",
": 	c #302C2A",
"< 	c #59524D",
"[ 	c #544E49",
"} 	c #544F49",
"| 	c #4B4641",
"1 	c #3D3837",
"2 	c #242123",
"3 	c #47433E",
"4 	c #4F4A45",
"5 	c #56504B",
"6 	c #514B47",
"7 	c #534D48",
"8 	c #534E48",
"9 	c #4D4944",
"0 	c #3E3B38",
"a 	c #312D2E",
"b 	c #1F1D20",
"c 	c #57504B",
"d 	c #5B554F",
"e 	c #57514C",
"f 	c #554F4A",
"g 	c #58524C",
"h 	c #57514B",
"i 	c #524C48",
"j 	c #554F49",
"k 	c #413E3A",
"l 	c #423E3B",
"m 	c #504B46",
"n 	c #46423D",
"o 	c #4A4641",
"p 	c #554E49",
"q 	c #48433F",
"r 	c #302C2B",
"s 	c #3E3A38",
"t 	c #423F3A",
"u 	c #433F3B",
"v 	c #43403B",
"w 	c #3C3836",
"x 	c #282426",
"y 	c #353131",
"z 	c #45413D",
"A 	c #43403C",
"B 	c #4B4642",
"C 	c #46423E",
"D 	c #3D3937",
"E 	c #403C39",
"F 	c #3B3736",
"G 	c #221F21",
"H 	c #55504A",
"I 	c #48443F",
"J 	c #45413C",
"K 	c #494440",
"L 	c #47433F",
"M 	c #3C3837",
"N 	c #3A3635",
"O 	c #2E2B2A",
"P 	c #4D4843",
"Q 	c #3E3A37",
"R 	c #514C46",
"S 	c #3C3736",
"T 	c #3B3636",
"U 	c #353033",
"V 	c #292626",
"W 	c #393535",
"X 	c #211E20",
"Y 	c #413D3A",
"Z 	c #44403B",
"` 	c #363133",
" .	c #282525",
"..	c #3F3B38",
"+.	c #262324",
"@.	c #272525",
"#.	c #44413C",
"$.	c #3B3737",
"%.	c #353032",
"&.	c #282526",
"*.	c #393435",
"=.	c #201E20",
"-.	c #5E5751",
";.	c #484440",
">.	c #3D3938",
",.	c #423F3B",
"'.	c #3F3B39",
").	c #393536",
"!.	c #403D3A",
"~.	c #252323",
"{.	c #252224",
"].	c #373333",
"^.	c #201D20",
"/.	c #403D39",
"(.	c #383334",
"_.	c #4C4742",
":.	c #443F3C",
"<.	c #242023",
"[.	c #242222",
"}.	c #3A3535",
"|.	c #353133",
"1.	c #242124",
"2.	c #221F22",
"3.	c #383433",
"4.	c #242223",
"5.	c #3A3636",
"6.	c #332F31",
"7.	c #373234",
"8.	c #3C3937",
"9.	c #322E30",
"0.	c #1F1C20",
"a.	c #494540",
"b.	c #342F31",
"c.	c #383434",
"d.	c #373232",
"e.	c #363134",
"f.	c #3F3C39",
"g.	c #363233",
"h.	c #342F32",
"i.	c #332E31",
"j.	c #302B2E",
"k.	c #292627",
"l.	c #302C2E",
"m.	c #373335",
"n.	c #383335",
"o.	c #2F2A2D",
"p.	c #221E21",
"q.	c #2C282A",
"r.	c #393434",
"s.	c #312C2F",
"t.	c #312D2F",
"u.	c #322D30",
"v.	c #252124",
"w.	c #2D292B",
"x.	c #373334",
"y.	c #342E31",
"z.	c #292528",
"A.	c #1D1B1E",
"B.	c #2C282B",
"C.	c #211E21",
"D.	c #282427",
"E.	c #1F1D1F",
"F.	c #1D1A1E",
"G.	c #262225",
"H.	c #272326",
"I.	c #252225",
"J.	c #232023",
"K.	c #1C1A1D",
"L.	c #272426",
"M.	c #262326",
"N.	c #262226",
"O.	c #262325",
"P.	c #231F23",
"Q.	c #49433F",
"R.	c #1C191C",
"S.	c #45403C",
"T.	c #494340",
"U.	c #47423E",
"V.	c #2C2829",
"W.	c #292628",
"X.	c #413C39",
"Y.	c #312D2D",
"Z.	c #2B2728",
"`.	c #3F3A38",
" +	c #3A3633",
".+	c #353130",
"++	c #3A3534",
"@+	c #4A4541",
"#+	c #46413E",
"$+	c #1B181B",
"%+	c #534E49",
"&+	c #494541",
"*+	c #4B4742",
"=+	c #403C38",
"-+	c #44403C",
";+	c #514C47",
">+	c #4A4540",
",+	c #2A2728",
"'+	c #34302F",
")+	c #322E2E",
"!+	c #3F3A39",
"~+	c #3B3635",
"{+	c #4E4944",
"]+	c #2B2828",
"^+	c #4D4844",
"/+	c #5C554F",
"(+	c #1A181B",
"_+	c #524C47",
":+	c #2D292A",
"<+	c #4E4844",
"[+	c #403C3A",
"}+	c #3E3938",
"|+	c #2C292A",
"1+	c #383435",
"2+	c #3C3737",
"3+	c #363232",
"4+	c #262323",
"5+	c #2B282A",
"6+	c #4A4440",
"7+	c #3E3A36",
"8+	c #1B191C",
"9+	c #3E3937",
"0+	c #363131",
"a+	c #343031",
"b+	c #232022",
"c+	c #3F3C38",
"d+	c #2B2829",
"e+	c #322F2E",
"f+	c #272325",
"g+	c #332F30",
"h+	c #2D292C",
"i+	c #332E30",
"j+	c #312C2E",
"k+	c #343032",
"l+	c #2A2629",
"m+	c #2B2729",
"n+	c #2E2A2D",
"o+	c #1E1B1E",
"p+	c #282527",
"q+	c #2F2B2E",
"r+	c #373233",
"s+	c #2F2B2D",
"t+	c #302C2F",
"u+	c #322D2F",
"v+	c #2D282B",
"w+	c #292527",
"x+	c #1D1B1D",
"y+	c #2A2627",
"z+	c #232122",
"A+	c #2A2628",
"B+	c #231F22",
"C+	c #262425",
"D+	c #59534D",
"E+	c #56514B",
"F+	c #47423F",
"G+	c #363231",
"H+	c #544F4A",
"I+	c #423D3B",
"J+	c #4C4843",
"K+	c #342F2E",
"L+	c #49443F",
"M+	c #282425",
"N+	c #4E4945",
"O+	c #1A171A",
"P+	c #564F4A",
"Q+	c #4C4743",
"R+	c #2F2B2A",
"S+	c #413C3A",
"T+	c #2F2B2B",
"U+	c #3C3735",
"V+	c #363033",
"W+	c #19171A",
"X+	c #2A2726",
"Y+	c #5A534E",
"Z+	c #3D3838",
"`+	c #2B2827",
" @	c #232021",
".@	c #2F2C2B",
"+@	c #363234",
"@@	c #2F2A2C",
"#@	c #282625",
"$@	c #373133",
"%@	c #2E2A2C",
"&@	c #302C2D",
"*@	c #433F3A",
"=@	c #3A3536",
"-@	c #373134",
";@	c #2B272A",
">@	c #201E21",
",@	c #2C272A",
"'@	c #2E292C",
")@	c #272427",
"!@	c #252125",
"~@	c #201D21",
"{@	c #4D4743",
"]@	c #312E2D",
"^@	c #4C4643",
"/@	c #373332",
"(@	c #3D3836",
"_@	c #4C4642",
":@	c #393533",
"<@	c #383533",
"[@	c #282528",
"}@	c #363130",
"|@	c #4B4541",
"1@	c #34312F",
"2@	c #4C4641",
"3@	c #46413D",
"4@	c #504A45",
"5@	c #453F3D",
"6@	c #3B3634",
"7@	c #524D48",
"8@	c #47413E",
"9@	c #4F4A44",
"0@	c #4A4441",
"a@	c #2E2A2A",
"b@	c #4F4945",
"c@	c #2E292B",
"d@	c #363330",
"e@	c #403B39",
"f@	c #353132",
"g@	c #312D2C",
"h@	c #3C3935",
"i@	c #342F2F",
"j@	c #353230",
"k@	c #292526",
"l@	c #3B3734",
"m@	c #35322F",
"n@	c #363132",
"o@	c #302D2D",
"p@	c #2A2528",
"q@	c #2B2629",
"r@	c #2E292D",
"s@	c #2A2529",
"t@	c #1C191D",
"u@	c #2D282C",
"v@	c #1B191D",
"w@	c #1B191B",
"x@	c #1B181C",
"y@	c #433F3C",
"z@	c #56504A",
"A@	c #332F2F",
"B@	c #2C2929",
"C@	c #4B4743",
"D@	c #58514C",
"E@	c #2F2C2A",
"F@	c #2C2928",
"G@	c #4E4843",
"H@	c #262424",
"I@	c #3E3936",
"J@	c #514B46",
"K@	c #3B3835",
"L@	c #322C2F",
"M@	c #1E1C1E",
"N@	c #2E2B2B",
"O@	c #46403D",
"P@	c #33302F",
"Q@	c #443F3A",
"R@	c #4E4943",
"S@	c #3D3936",
"T@	c #4F4944",
"U@	c #2C2A2A",
"V@	c #242122",
"W@	c #59534E",
"X@	c #443F3D",
"Y@	c #534D49",
"Z@	c #332F2E",
"`@	c #58524D",
" #	c #3C3936",
".#	c #44403D",
"+#	c #504A46",
"@#	c #322F2D",
"##	c #4B4741",
"$#	c #45423D",
"%#	c #282626",
"&#	c #2D2A29",
"*#	c #3A3533",
"=#	c #45403D",
"-#	c #363331",
";#	c #2F2C2D",
">#	c #211D20",
",#	c #332F32",
"'#	c #343033",
")#	c #221F23",
"!#	c #1E1B1F",
"~#	c #211E22",
"  . + @ # @ @ $ @ @ @ @ % & * = - @ @ @ @ @ @ @ @ @ @ @ ; > , ' ) @ ! $ ! @ $ @ $ @ ! @ @ $ @ ) ~ { ] ^ ~ / @ @ @ @ @ $ @ ( - _ ",
": < [ [ [ [ [ [ [ [ [ } | 1 2 3 4 } [ [ < 5 [ [ [ 6 7 8 9 0 a b 7 c d e f [ g h [ [ [ i [ [ [ j k ] l m n o [ [ [ [ [ p [ [ q ] ",
"r 7 s t u v u u u v v v u w x y z A v v B C u u u D E u ! t F G 1 H 7 I J v K L u u t E u v t M N O P z v v u u v v v u Q u N 2 ",
"O R S u v v v u u 1 v u u T U V E u u v v v v v u u z 3 v u W X } [ z u u u v u u u k Y u u u Z `  .u v u v u u u v v u s s ..+.",
"@.#.Y v v u u u u u u u u $.%.&.Y u u u u u u u u u z C u u *.=.-.;.u >.T u u u l ,.u u u E '.u ).+...u u v E E u s u v v Z !.] ",
"~.! u u u ,.,.>.T Y u u ,.s ` {.].'.u u M Y u u u u u u u u ].^.R u u Y E u u ,.'.k u u u ! ! ,./.2 (.k u u s s ,.k u v v _.:.<.",
"[.k ,.u u ,.! E Y }.u ,.s W |.1.U F k u ,.u u u u u u ! E t y b 3 u u u u u u u ,.,.u u u u u u %.2.(.Y u u u ,.u u u u ,.t 3.2.",
"4.Y ,.,.l 5.$.Y ! ,.! D W ` 6.2 7.s ,.l ,.,.,.,.u u u F s 8.9.0.D ! a.n ,.,.t u ,.,.,.,.,.,.u M b.2.(.Y u ,.,.,.t ,.u ,.,.t c.2.",
"X d.k Y s ` e.W F E f.g.h.i.j.k.s ).W '.k Y Y + S M F >.E 5.l.* l.D ! + /.'.m.n.*.E ! /./.>.7.%.o.p.h.D + /.+ E + D 7.'.E M b.2.",
"* q.3.r.U |.e.i.h.s.j.t.u.u.v.{ w.*.W x.(.x.7.h.h.W 1 W y.i.z.A.B.%.h.9.h.i.U h.e.(.W 7.h.` %.B.C.^.o.u.u.j.i.s.i.9.u.` h.t.D.E.",
"F.b 2.G.H.H.H.I.I.J.<.1.I.v.A.K.C.H.L.H.M.M.M.M.M.H.H.M.M.M.* K.^.H.M.G.M.v.N.G.O.M.I.M.G.H.M.{ K.F.2.v.1.v.I.<.G.P.2.G.H.2.A.K.",
"G D Q.Q.Q.Q.Q.Q.l D.R.k.S.T.K q q Y U.q Q.q q @ V.0.A.W.% T.K K Q.Q.Q.T.T.T.T.Q.q X.Y.2.{ Z.`.Q.q T.Q.Q.q  +.+L.K.+.u K K K ++C.",
"4.:.B o @+@+@+@+#+c.$+q %+o o @+a.L | o &+*+@+3 =+> J.-+e ;+| | o h o o o @+o @+@+>+/.,+'+q 4 o o o | i *+#.u )+=.5 a.o o @+!+v.",
"~.-+3 k ....'.,.Y M $+e -+v u E u v v u u Y ..Y /.q.~+{+A -+v A v v A A A v u ,.u u + ]+U.^+v v -+#.q 3 v v ,...L./+v v u u s +.",
"~.u u f.}.7.U /.t E (+_+v v u s u v u u u Q (.E M :+@+K Z Z v v v A v v v v E D ,.! F {.<+#.v u u v J -+u u ! M 1.a.u u s u F 2 ",
"~.q P ,.k '.5./.E c.(+3 u u u ,.!.k u u u u '.[+}+|+@+q M F k u v v v u v u Y E '.1+F G.U.v u ! F ,.v v u u k c.<.2+u u E ! 3+2.",
"4+A -+,.,.t ! ! '.U (+Y u v u u ,.z n v u u ! k Y 5+6+| ! ..'.u u v v u u u u u '.f.s x 7+t ,.'.*.'.Y ,.u u Y (.2 $.u v u E %.2.",
"4+,.,.t ,.t ! ! '.` 8+T u u ,.u u v v u u u M t ! |+9+-+#.u !.u v u '.w S F D k t Y *.L.0+D t E s s D }.Y k T 6.p.2+u u ,.'.a+2.",
"b+N c+D T ..*.7.U b.8+*.t /.5.E ,.,.u ,.E k E ! '.d+e+E u ,.t k ,.E 1+e.7.e.` M '.}.%.f+g+}.$./.E '.T ` D T b.h+^.U T Y + ` i+p.",
"^.j+U 7.2+7.7.(.s.D.8+l.c.h.x.x...t t k T 5.7.F n.b+D.3+Y ..M %./.x.` $.E s 1+g.k+j.l+^.m+(.` U k+U U U 6.u.n+G.o+z.%.M ` i.j.^.",
"{ p+u.h.s.b.s.u.q+b K.^.l.t.i.h.b.a+r+*.n.s+U 6.h+' { l+u.u.u.q+9.|.|.7.7.7.` U t+H.{ K.A.D.u.u+v+l+i.s.C.C.^.A.K.^.s+i.t.h+^.F.",
"K.G {.f+x w+w+&.x +.b+x+{ X y+,+k.] ] O.x z+* * 2 V V ,+V.Z.A+y+Z.Z.C.^.0.B+A+A+A+X * +.O.C+2 &.G A.^.b =.2     +.+.L.x L.{.' K.",
"b+q 5 5 5 h D+g E+5 F+:+o+G+f E+5 5 5 5 5 L V ]+:.e E+e h h E+H+h 5 g+l+8+I+h E+D+e 5 E+5 ;+z H J+p+^.K+o e h h 5 e e 5 h [ b.J.",
"O m v u u C _.L+#.u E (.M+N+3 v v u u u ,.t 3. +a.v v a.u u l A u ,.Y r+O+P+-+u Q+I v u u C 3 Z u D m+<+7 v v u u A z ..Y t s L.",
"R+_+v u u u v S+M t ,.c.T+_+-+u u u u u v ,.j+U+I u u I u u u u u u E V+W+H v ! >.Y u u u E + u ,.E w.<+L v u u u 2+u u u }+D O.",
"X+I u v u u u ,.l u u y R+Y+3 ,.>.$.u u u t a / C -+s M v u u u u u l 1+W+f ,.Z+s u u u Y n.s ,.,.E v+<+L u u u u ,.u u u ! 5.2 ",
"`+a.u u u u u ,.,.u t c. @}+u ! E u u u ,.'.j..@J+@+u u u u u u ,.! Y +@W+f u u n #.u u ,.,.,.u ,.!.n+@@+ u u u u + '.u u /.(.J.",
"#@K + s F u u ,.,.,.s $@G M t u u u u u k 1+l.> ! ,.u ,.u u u ,.'.D '.b.W+q Y ,.A u u ,.u ,.Y k t E %@&@s ! t ,.u ,.*@Y ,.,.N 1.",
"2 D 7.F Y ,.,.! ! E 1+u+G $.! ,.,.u ,.u 5.}.l.Z.T s t k ,.,.,.,...!.'.b.W+E 1+E u u ,.k t t 2+*.Y 5.v+j.U =@>.E ,.t t S /.t W J.",
"C.i++@*.T T $.(.x.e.U %@C.` W W 1+}+s $.(.6.D.H.u.` r+(.E D n.7.(.F 7.i.(+].-@1 E '.>.7.n.(.` k+%.U ;@h+U ` ` $.s (.s E '.S l.>@",
"* v+b.` e.e.e.V+j.y.i.1.^.v+u.l.s.6.u.q+B.C.F.B+,@j.n+t.h.i.u.i.U %.l.l+R.z.u.U e.e.e.|.` i.'@n+t.i.G.2.v+u.e.V+h.h.U }.` u.G.A.",
"K.{ I.)@)@D.D.D.C.G.G.A.F.C.P.2.1.v.v.2.o+K.K.{ C.C.b 2.!@J.b+1.G.H.2.A.K.^.2.H.D.D.H.M.G.J.* ^.v.J.E.K.~@J.H.D.D.H.D.)@M.1.A.K.",
"* & 6+{@{@_.{@{@]@{ ^.6+Q+{@_._.{@{@^@#+/@(@Q _@_@6+:@{.K.J.U.P P P P P _._@<@[@<.{ }@B B |@|@X.- B _.B _@1@A+{ G {+_@2@|@3@> * ",
"  q 4 P P P 4 @+3+J.; 4@4 P ^+@+Q+J+B L Y L f %+P 5@l j+G 6@8 P J+P P J+| *+,.].'@]+|@7@P Q+P I C J+P P P /.g.G.8@9@J+J+0@{+0 O.",
"a@[ J u v u -+W ++I.q P 3 Z v T *.5.5.k u v q #.u E ! r.m+7+n u u u u ,.n 3 ,.M s. +b@J Y 1 u u v v v u ,.t % H.m v u u k -+E +.",
"T+[ u u ! u u t '.w.q | u u u u ,.,.E Y u u u u ,.u u D c@d@u u u u '.! u ,.t D u. +a.u s n.f.u u u u ..k ! *.D.=+u u u u 0 %.J.",
".@[ u u E u u ,...;@S.@+E e@,.u u u ! ! u ,.u ,.s u ,.'.%@d@D ,.u u u u u u t f.f@g@v u ..s Y u u u u E k ,.D w+h@u u u t }.%.J.",
" .C u u u ,.,.! 1+w.i@u ! M Y ,.,.,.,.,.'.Y s ,.,.,.t F q.j@W ,.,.u ,.u t Y E D 9.k@F u u ,.u u u u u u t E %.H.^ ,.t ,.Y }.c.2 ",
"@.n k t ,.,.k s ` w.w.f.! ! t ! ,.,.t ,.s E Y ! F t k N m+1@Y t ,.,.,.,.,.! Y 5.s.w+E ,.! s ! ! ,.t ,.,.t /.7.L.l@+ '.! ! /.N 1.",
"G +@` E ! E T n.%.z.m@S *.D k >.s ! ! `.D M 0 '.7.M 7.r+l+%@'.Y s k Y s '.Y 5.U B.H.c.!.! ! T '.! f.Y k ! D i+v.a %.T E ! F r+J.",
"=.h.U n@}.T 7.V+w.^.o@F V+e.5.2+x.W $.x.U h.x.}.U h.u.v+G x c.(.e.5.*.e.$.*.U i.L.C.s+*.F *.W }.T ` 7.5.F i+H.o+p@u.h.x.F U i.2.",
"K.1.q@L.z.z.z.!@^.K.o+H.h+w.h+,@l+q@q@;@;@;@;@m+r@n+l+{ K.' ;@r@h+'@'@v+w.h+n+B.^.K.H.;@B.B.;@l+h+o.h+;@s+s@p.t@o+B.'@u@v+B.z.^.",
"v@8+(+(+(+(+(+(+(+(+(+(+$+$+$+(+w@$+(+8+t@8+(+(+(+(+(+(+(+$+$+$+(+K.8+(+(+(+$+(+(+(+(+(+$+$+$+$+t@R.x@(+(+(+(+(+(+(+(+(+(+(+8+8+",
"b+y@H e h z@8 4 I ,.o z@h h 5 5 h f c+A@* B@m h *+C@h e E+< g D@r.<.T+c h c [ L B Y+h c h f | Z O.&.(@5 5 5 5 5 5 m &+e D+b@9.C.",
"E@h L -+u Z _._.C n z Z u v v z z v ! r.L.B 4 v u }+u J v I z u ..m+6+j u -+o 8 e f v v u ..N + e@^ *+^+v v v v v u u v {+! 5.{.",
"F@^+v u u u u v v v v v v u t ..u u t >.L.G@v v u ! ..E u ,.k ,.f.,@6+I v u u u J v u u u u t k -+l@4 u u u u u u u ,...Y + *.v.",
"H@u u u u *.Y v v u u v u u t c.,.,.t F G.Q u u u E T E ,.k '.,...q.6+L u u u u u u u S ..t t >.n@I@J@u ,.,...'.u u k 1+E Y *.2 ",
" .z u u u ,.u u u u u u u ,.u ,.,.u ! F x K@u u u t ,.u u u ,.t 1 ,@j@'.u u ,.,.u u ,.>.`.,.t E 9.r *+u ,.,.t ,.,.u u ,.,.t D +.",
"  '.k ,.u u u u u u u /.../.,.,.u ,.,...k.- ,.u u u u u u !.k ! ` ;@z.5.,.u k Y u u u ,.u ,.t Y s.O ! ,.t t t t ,.u u u t ! n@2.",
"=.(.*.t ,.,.,.,.,.,.s 7.e.W s k ! k k F L./@/.,.,.! ! ,.,.Y ! *.h.z.m+F ! ,.! ,.,.,.t + E ! t ! i.]+Y Y ! k 5.F k t ,.t k s i.2.",
"X u.i.M M n.! ! ! ..W *.U U ` }.s h.n.h.I.'@n@D }.F D }+D >.W %.u.{.;@N e.U *.s D M ..}.s s ` u.t.I.L@].c+E ` ` 1+M s D x.%.i+J.",
"A.l+s.u.` e.5.5.F 7.U r+i.u.k+|.7.U h.;@* <.u.e.U *.` u.u.U U U q.{ 2.h+` ` e.` %.U ` 7.F (.` z.<.X h+i.(.c.b.U U U U U u.n+m+^.",
"K.^.G.G.x H.H.H.D.H.!@v.G.G.M.H.L.)@G.^.K.8+G.H.)@O.G.b+1.H.L.G.^.K.K.^.H.H.H.H.H.H.H.M.I.)@H.* R.t@C.M.M.I.G.M.M.H.L.H.M.2.^.o+",
"M@N@O@Q.Q.Q.L+L+Q.L+P@,+A.C.Q@G@G@{+{+{+R@{+<+{+C {@S@]@K..@@+{+{+{+{+{+{+T@K q - 2.+.+ <+T@T@{+G@T@{+{+{+{+q S@Z.K.U@u q U.S@~.",
"V@..e P P J+_.0@Q+B s w G..+m ;+4 P J+{+D+5 P P _.J+z w {.) W@P Q+Q+J+J+Q+*+X@Y@{@)+Z@7 `@P J+J+J+J+J+J+Q+P m *+ #x :.4 P {+C `+",
"~.t 3 u u ,.u u u ,.M ..j+9+B #.-+v v -+.#4 u u v u '.s w.K {+J u u u u u ,.Y +#@+(.@#o L u u u u v v v u v z z k w.u ##$#E 5.] ",
"%#C u ,.u u E k u ,.(.%.j.S@a.v v v u u [+Y u ,.s e@Y s '@K o I u u '.k u u u v !.n.B@u u v u u u u u E u u u u k a >+*+Z E *.1.",
"&#{+t ,.u t ! ,.u ,.,./.%@*#-+u u u u u l ! u ,.}.1 '.>.w.=#K #.u k 5.E u u ,.u t Y ]+t u u u u u ,.E *.u u u ,.'.v+- ! ! t T v.",
"C.*.! ,.,.t t ,.,.,.,.k v+.@D ,.,.Y ,.,.u u u ,.u u t N ,@e+k t ,.....,.,.,.E f.k ..k@E u t !.! ,.! k t ,.,.,.E W q.-#! E t M O.",
"C.U S s ! ! t ,.t ,.,.E h+O ! Y F D ,.,.,.,.,.,.,.! ..c.l+;#>.s ! t ,.,.,.t Y Y ..=@{.F ,.M 7.2+..t ,.,.t t E }.5.v+= s S ! F {.",
"C.` U 7.E N ..! k 1 T ].B.m+..f.>./.t ,.! ,.,.! t /.7.s.{.%@=@U ! ! Y M ! Y F 5.x.u.{.N ! 7.e.` 7.>.t ! ! k 1+e.` ;@)+D + T r+1.",
"C.U ` ` 1+h.` ` x.e.` s.2.>#c.1+=@s f.M ` |.|.` |.k+h.,@^.1.h.` x.n.7.` 7.7.` U i.v.p.i+*.e.e.e.U e.7.7.7.7.U %.u.B+q.%.M |.b.J.",
"o+h+e.U i.u.,#t.e.e.s.l+K.K.B.6.'#%.e.+@i.,#'#h.q+U h.J.K.K.B.k+e.e.e.e.e.e.e.U q+C.' I.t.e.e.e.U u.i.` e.U s.i.;@' C.l.%.i+D.* ",
"K.* J.)#2., 2.C.2.)#>@* K.t@o+, 2.2.2.J.C.2.2., b 2.2.A.t@t@!#2.2.2.P.P.)#J.J.J.b K.K.A.~@)#2.2.B+C.C.2.2.)#~#2.* K.K.>@2.C.A.K."};
