/* XPM */
static char * ea_texture_xpm[] = {
"64 64 10 1",
" 	c #15E930",
".	c #001901",
"+	c #000000",
"@	c #067C15",
"#	c #056C11",
"$	c #0BA31E",
"%	c #0EB824",
"&	c #0A9B1C",
"*	c #0FC126",
"=	c #09931A",
"                                                                ",
"                                                                ",
"                                                                ",
"                                                                ",
"                                                                ",
"                                                                ",
"                                                                ",
"                                                                ",
"                                                                ",
"                                                                ",
"                   .+++++++++++++++++++++++@                    ",
"                   .+++++++++++++++++++++++@                    ",
"                   .+++++++++++++++++++++++@                    ",
"                   .+++++++++++++++++++++++@                    ",
"                   .++++#$$$$$$$$$$$$$$$$$$%                    ",
"                   .++++&                                       ",
"                   .++++&                                       ",
"                   .++++&                                       ",
"                   .++++&                                       ",
"                   .++++&                                       ",
"                   .++++&                                       ",
"                   .++++&                                       ",
"                   .++++&                                       ",
"                   .++++&                                       ",
"                   .++++&                                       ",
"                   .++++&                                       ",
"                   .++++&                                       ",
"                   .++++&                                       ",
"                   .++++#$$$$$$$$$$$$$$$$$*                     ",
"                   .++++++++++++++++++++++=                     ",
"                   .++++++++++++++++++++++=                     ",
"                   .++++++++++++++++++++++=                     ",
"                   .++++++++++++++++++++++=                     ",
"                   .++++&                                       ",
"                   .++++&                                       ",
"                   .++++&                                       ",
"                   .++++&                                       ",
"                   .++++&                                       ",
"                   .++++&                                       ",
"                   .++++&                                       ",
"                   .++++&                                       ",
"                   .++++&                                       ",
"                   .++++&                                       ",
"                   .++++&                                       ",
"                   .++++&                                       ",
"                   .++++&                                       ",
"                   .++++&                                       ",
"                   .++++&                                       ",
"                   .++++&                                       ",
"                   .++++#$$$$$$$$$$$$$$$$$$%                    ",
"                   .+++++++++++++++++++++++@                    ",
"                   .+++++++++++++++++++++++@                    ",
"                   .+++++++++++++++++++++++@                    ",
"                   .+++++++++++++++++++++++@                    ",
"                                                                ",
"                                                                ",
"                                                                ",
"                                                                ",
"                                                                ",
"                                                                ",
"                                                                ",
"                                                                ",
"                                                                ",
"                                                                "};
