/* XPM */
static const char *key_frame_18[] = {
/* columns rows colors chars-per-pixel */
"32 32 10 1 ",
"  c black",
". c #000800",
"X c #202020",
"o c #313031",
"O c #EE8900",
"+ c #F69518",
"@ c #F6B252",
"# c #FFDAA4",
"$ c #FFEEDE",
"% c None",
/* pixels */
"%%%%%%%%%%%%%%%. %%%%%%%%%%%%%%%",
"%%%%%%%%%%%%%%o$# %%%%%%%%%%%%%%",
"%%%%%%%%%%%%%%X$# %%%%%%%%%%%%%%",
"%%%%%%%%%%%%%%X@@ %%%%%%%%%%%%%%",
"%%%%%%%%%%%%%%X#@ %%%%%%%%%%%%%%",
"%%%%%%%%%%%%%%X$@ %%%%%%%%%%%%%%",
"%%%%%%%%%%%%%%X$@ %%%%%%%%%%%%%%",
"%%%%%%%%%%%%%%.#@ %%%%%%%%%%%%%%",
"%%%%%%%%%%%%%%.@@ %%%%%%%%%%%%%%",
"%%%%%%%%%%%%%%.+O %%%%%%%%%%%%%%",
"%%%%%%%%%%%%%% $@ %%%%%%%%%%%%%%",
"%%%%%%%%%%%%%% #@ %%%%%%%%%%%%%%",
"%%%%%%%%%%%%%% @@ %%%%%%%%%%%%%%",
"%%%%%%%%%%%%%% +O %%%%%%%%%%%%%%",
"%%%%%%%%%%%%%% ++ %%%%%%%%%%%%%%",
"%%%%%%%%%%%%%% OO %%%%%%%%%%%%%%",
"%%%%%%%%%%%%%% OO %%%%%%%%%%%%%%",
"%%%%%%%%%%%%%%oOO %%%%%%%%%%%%%%",
"%%%%%%%%%%%%%%o$# %%%%%%%%%%%%%%",
"%%%%%%%%%%%%%%o$# %%%%%%%%%%%%%%",
"%%%%%%%%%%%%%%X$@ %%%%%%%%%%%%%%",
"%%%%%%%%%%%%%%X#@ %%%%%%%%%%%%%%",
"%%%%%%%%%%%%%%X@@ %%%%%%%%%%%%%%",
"%%%%%%%%%%%%%%.@@ %%%%%%%%%%%%%%",
"%%%%%%%%%%%%%%.@+ %%%%%%%%%%%%%%",
"%%%%%%%%%%%%%%.@+ %%%%%%%%%%%%%%",
"%%%%%%%%%%%%%% @+ %%%%%%%%%%%%%%",
"%%%%%%%%%%%%%% @+ %%%%%%%%%%%%%%",
"%%%%%%%%%%%%%%    %%%%%%%%%%%%%%",
"%%%%%%%%%%%%%%%%%%%%%%%%%%%%%%%%",
"%%%%%%%%%%%%%%%%%%%%%%%%%%%%%%%%",
"%%%%%%%%%%%%%%%%%%%%%%%%%%%%%%%%"
};
