/* XPM */
static const char *key_frame_19[] = {
/* columns rows colors chars-per-pixel */
"32 32 10 1 ",
"  c black",
". c #000800",
"X c #202020",
"o c #313031",
"O c #EE8900",
"+ c #F69518",
"@ c #F6B252",
"# c #FFDAA4",
"$ c #FFEEDE",
"% c None",
/* pixels */
"%%%%%%%%%%%%%%%%%%. %%%%%%%%%%%%",
"%%%%%%%%%%%%%%%%%o$@ %%%%%%%%%%%",
"%%%%%%%%%%%%%%%%%X#@ %%%%%%%%%%%",
"%%%%%%%%%%%%%%%%%X@ %%%%%%%%%%%%",
"%%%%%%%%%%%%%%%%o$@ %%%%%%%%%%%%",
"%%%%%%%%%%%%%%%%X$$ %%%%%%%%%%%%",
"%%%%%%%%%%%%%%%%X#$@ %%%%%%%%%%%",
"%%%%%%%%%%%%%%%%.@#@ %%%%%%%%%%%",
"%%%%%%%%%%%%%%%X$+@@ %%%%%%%%%%%",
"%%%%%%%%%%%%%%%.$$+ %%%%%%%%%%%%",
"%%%%%%%%%%%%%%% $$ %%%%%%%%%%%%%",
"%%%%%%%%%%%%%% @@#@ %%%%%%%%%%%%",
"%%%%%%%%%%%%%% @+@ %%%%%%%%%%%%%",
"%%%%%%%%%%%%%% +O@ %%%%%%%%%%%%%",
"%%%%%%%%%%%%oo@O@ %%%%%%%%%%%%%%",
"%%%%%%%%%%%X$@OO %%%%%%%%%%%%%%%",
"%%%%%%%%%%%.#++O %%%%%%%%%%%%%%%",
"%%%%%%%%%%% O$$O %%%%%%%%%%%%%%%",
"%%%%%%%%%%.@+$$# %%%%%%%%%%%%%%%",
"%%%%%%%%%%.#@$$# %%%%%%%%%%%%%%%",
"%%%%%%%%%%.#@$$# %%%%%%%%%%%%%%%",
"%%%%%%%%%%X#@$$# %%%%%%%%%%%%%%%",
"%%%%%%%%%%X$#$#@ %%%%%%%%%%%%%%%",
"%%%%%%%%%%X$$##@ %%%%%%%%%%%%%%%",
"%%%%%%%%%%.$$##+ %%%%%%%%%%%%%%%",
"%%%%%%%%%%%o$#@@ %%%%%%%%%%%%%%%",
"%%%%%%%%%%%X#@++ %%%%%%%%%%%%%%%",
"%%%%%%%%%%%.@@+ %%%%%%%%%%%%%%%%",
"%%%%%%%%%%%%    %%%%%%%%%%%%%%%%",
"%%%%%%%%%%%%%%%%%%%%%%%%%%%%%%%%",
"%%%%%%%%%%%%%%%%%%%%%%%%%%%%%%%%",
"%%%%%%%%%%%%%%%%%%%%%%%%%%%%%%%%"
};
