/* XPM */
static const char *key_frame_22[] = {
/* columns rows colors chars-per-pixel */
"32 32 9 1 ",
"  c black",
". c #000800",
"X c #202020",
"o c #313031",
"O c #F69518",
"+ c #F6B252",
"@ c #FFDAA4",
"# c #FFEEDE",
"$ c None",
/* pixels */
"$$$$$$$$$$$$$$$$$$$$$$$$$$$$$$$$",
"$$$$$$$$$$$$$$$$$$$$$$$$X. $$$$$",
"$$$$$$$$$$$$$$$$$$$$$$$X@+ $$$$$",
"$$$$$$$$$$$$$$$$$$$$$$o#+O $$$$$",
"$$$$$$$$$$$$$$$$$$$$$o#+# $$$$$$",
"$$$$$$$$$$$$$$$$$$$$o#++#@ $$$$$",
"$$$$$$$$$$$$$$$$$$$o#+++@++ $$$$",
"$$$$$$$$$$$$$$$$$$o#+++ ++++ $$$",
"$$$$$$$$$$$$$$$$$$o@++ $ O+ $$$$",
"$$$$$$$$$$$$$$$$$o@+## $$  $$$$$",
"$$$$$$$$$$$$$$$$X@++@@@ $$$$$$$$",
"$$$$$$$$$$$$$$$X++O ++++ $$$$$$$",
"$$$$$$$$$$$$$$X++O $ O+ $$$$$$$$",
"$$$$$$$$$$$$$.++O $$$  $$$$$$$$$",
"$$$$$$ooooX..++O $$$$$$$$$$$$$$$",
"$$$$oo######@+O $$$$$$$$$$$$$$$$",
"$$$o#@+@@@##+OO $$$$$$$$$$$$$$$$",
"$$$X++O   @##@ $$$$$$$$$$$$$$$$$",
"$$o#+O $$$ @#+ $$$$$$$$$$$$$$$$$",
"$$X+O $$$$$.#++ $$$$$$$$$$$$$$$$",
"$$X@O $$$$$$X@+ $$$$$$$$$$$$$$$$",
"$$X@+ $$$$$$X@+ $$$$$$$$$$$$$$$$",
"$$X@+ $$$$$$X@+ $$$$$$$$$$$$$$$$",
"$$X#@ $$$$$X#++ $$$$$$$$$$$$$$$$",
"$$.##@ $$$$X++ $$$$$$$$$$$$$$$$$",
"$$$.###XXoo#+O $$$$$$$$$$$$$$$$$",
"$$$ @######+O $$$$$$$$$$$$$$$$$$",
"$$$$ @@#@++O $$$$$$$$$$$$$$$$$$$",
"$$$$$       $$$$$$$$$$$$$$$$$$$$",
"$$$$$$$$$$$$$$$$$$$$$$$$$$$$$$$$",
"$$$$$$$$$$$$$$$$$$$$$$$$$$$$$$$$",
"$$$$$$$$$$$$$$$$$$$$$$$$$$$$$$$$"
};
