/* XPM */
static const char *key_frame_4[] = {
/* columns rows colors chars-per-pixel */
"32 32 10 1 ",
"  c black",
". c #000800",
"X c #202020",
"o c #313031",
"O c #EE8900",
"+ c #F69518",
"@ c #F6B252",
"# c #FFDAA4",
"$ c #FFEEDE",
"% c None",
/* pixels */
"%%%%%%%%%%%%%%%%%%%%..%%%%%%%%%%",
"%%%%%%%%%%%%%%%%%%%%.@ %%%%%%%%%",
"%%%%%%%%%%%%%%%%%%%.@@ %%%%%%%%%",
"%%%%%%%%%%%%%%%%%%%X@+ %%%%%%%%%",
"%%%%%%%%%%%%%%%%%%X#@O %%%%%%%%%",
"%%%%%%%%%%%%%%%%%%X@+@ %%%%%%%%%",
"%%%%%%%%%%%%%%%%%o$@O@@ %%%%%%%%",
"%%%%%%%%%%%%%%%%%o#+@@O %%%%%%%%",
"%%%%%%%%%%%%%%%%o$@O@@+ %%%%%%%%",
"%%%%%%%%%%%%%%%%o#@O@  %%%%%%%%%",
"%%%%%%%%%%%%%%%o$@+@ %%%%%%%%%%%",
"%%%%%%%%%%%%%%%o#@O@O %%%%%%%%%%",
"%%%%%%%%%%%%%%o$@+@@+ %%%%%%%%%%",
"%%%%%%%%%%%%%%X@@    %%%%%%%%%%%",
"%%%%%%%%%%X.  $@ %%%%%%%%%%%%%%%",
"%%%%%%%%%o@@O+O@ %%%%%%%%%%%%%%%",
"%%%%%%%%o$@+@O+ %%%%%%%%%%%%%%%%",
"%%%%%%%X$#@ OOO %%%%%%%%%%%%%%%%",
"%%%%%%%o$# % @+ %%%%%%%%%%%%%%%%",
"%%%%%%%o$@ % @+@ %%%%%%%%%%%%%%%",
"%%%%%%%X#@ %%.@@ %%%%%%%%%%%%%%%",
"%%%%%%%X#@ %%X#@ %%%%%%%%%%%%%%%",
"%%%%%%%.#@ %%o#@ %%%%%%%%%%%%%%%",
"%%%%%%%.#+ %X$#@ %%%%%%%%%%%%%%%",
"%%%%%%%.@+ %o$@ %%%%%%%%%%%%%%%%",
"%%%%%%% @++ @@@ %%%%%%%%%%%%%%%%",
"%%%%%%%% +O+@+O %%%%%%%%%%%%%%%%",
"%%%%%%%% @OOO+ %%%%%%%%%%%%%%%%%",
"%%%%%%%%%     %%%%%%%%%%%%%%%%%%",
"%%%%%%%%%%%%%%%%%%%%%%%%%%%%%%%%",
"%%%%%%%%%%%%%%%%%%%%%%%%%%%%%%%%",
"%%%%%%%%%%%%%%%%%%%%%%%%%%%%%%%%"
};
