/* XPM */
static const char *key_frame_23[] = {
/* columns rows colors chars-per-pixel */
"32 32 9 1 ",
"  c black",
". c #000800",
"X c #202020",
"o c #313031",
"O c #F69518",
"+ c #F6B252",
"@ c #FFDAA4",
"# c #FFEEDE",
"$ c None",
/* pixels */
"$$$$$$$$$$$$$$$$$$$$$$$$$$$$$$$$",
"$$$$$$$$$$$$$$$$$$$$$$$$$X.$$$$$",
"$$$$$$$$$$$$$$$$$$$$$$$$X++ $$$$",
"$$$$$$$$$$$$$$$$$$$$$$$X@+O $$$$",
"$$$$$$$$$$$$$$$$$$$$$$o#+O $$$$$",
"$$$$$$$$$$$$$$$$$$$$$o#++#@ $$$$",
"$$$$$$$$$$$$$$$$$$$$o#++.+++ $$$",
"$$$$$$$$$$$$$$$$$$$o#+O $ OO+ $$",
"$$$$$$$$$$$$$$$$$$o#++ $$ O+ $$$",
"$$$$$$$$$$$$$$$$$o#++#@ $$  $$$$",
"$$$$$$$$$$$$$$$$o#++++++ $$$$$$$",
"$$$$$$$$$$$$$$$X#+O  ++O+ $$$$$$",
"$$$$$$$$$$$$$$X@+O $$ O+ $$$$$$$",
"$$$$$$$$$$$$$X@+O $$$$  $$$$$$$$",
"$$$$$oooXX.$.++O $$$$$$$$$$$$$$$",
"$$$oo######.++O $$$$$$$$$$$$$$$$",
"$$o#@+++@+@@+O $$$$$$$$$$$$$$$$$",
"$o#+++    +@@ $$$$$$$$$$$$$$$$$$",
"$o@+O $$$$ +++ $$$$$$$$$$$$$$$$$",
"X#+O $$$$$$.@@ $$$$$$$$$$$$$$$$$",
"X#+ $$$$$$$.@@ $$$$$$$$$$$$$$$$$",
"X@+ $$$$$$$.#@ $$$$$$$$$$$$$$$$$",
".@@ $$$$$$$X#@ $$$$$$$$$$$$$$$$$",
".@++ $$$$$$o@+ $$$$$$$$$$$$$$$$$",
"$.++@ $$$$o#+O $$$$$$$$$$$$$$$$$",
"$ @@@@.Xoo#+++ $$$$$$$$$$$$$$$$$",
"$$ +@#####++O $$$$$$$$$$$$$$$$$$",
"$$$ @@@@@+O+ $$$$$$$$$$$$$$$$$$$",
"$$$$        $$$$$$$$$$$$$$$$$$$$",
"$$$$$$$$$$$$$$$$$$$$$$$$$$$$$$$$",
"$$$$$$$$$$$$$$$$$$$$$$$$$$$$$$$$",
"$$$$$$$$$$$$$$$$$$$$$$$$$$$$$$$$"
};
