/* XPM */
static const char *key_frame_14[] = {
/* columns rows colors chars-per-pixel */
"32 32 10 1 ",
"  c black",
". c #000800",
"X c #202020",
"o c #313031",
"O c #EE8900",
"+ c #F69518",
"@ c #F6B252",
"# c #FFDAA4",
"$ c #FFEEDE",
"% c None",
/* pixels */
"%%%%%%%%%%%%%%%%%%%%%%%%%%%%%%%%",
"%%%%%.oX%%%%%%%%%%%%%%%%%%%%%%%%",
"%%%%%o$$.%%%%%%%%%%%%%%%%%%%%%%%",
"%%%%%X$$#.%%%%%%%%%%%%%%%%%%%%%%",
"%%%%%%.$#@.%%%%%%%%%%%%%%%%%%%%%",
"%%%%%o$##@@ %%%%%%%%%%%%%%%%%%%%",
"%%%%X$@+O#@@ %%%%%%%%%%%%%%%%%%%",
"%%%.$@+O #@@@ %%%%%%%%%%%%%%%%%%",
"%%%% @O % @@@ %%%%%%%%%%%%%%%%%%",
"%%%%%  %%o#@@+ %%%%%%%%%%%%%%%%%",
"%%%%%%%%o$#+O@+ %%%%%%%%%%%%%%%%",
"%%%%%%%X#@+O ++O %%%%%%%%%%%%%%%",
"%%%%%%%% @O % +OO %%%%%%%%%%%%%%",
"%%%%%%%%%  %%% OOO %%%%%%%%%%%%%",
"%%%%%%%%%%%%%%% OOO XX..  %%%%%%",
"%%%%%%%%%%%%%%%% OO@$@@@+@  %%%%",
"%%%%%%%%%%%%%%%% +OO#++@+++@ %%%",
"%%%%%%%%%%%%%%%%% $#+@   +++ %%%",
"%%%%%%%%%%%%%%%%%o$@@ %%% +++ %%",
"%%%%%%%%%%%%%%%%X$@+ %%%%% @@ %%",
"%%%%%%%%%%%%%%%%X$# %%%%%%.#@ %%",
"%%%%%%%%%%%%%%%%X$@ %%%%%%X$# %%",
"%%%%%%%%%%%%%%%%.#@ %%%%%%o$# %%",
"%%%%%%%%%%%%%%%%.#@@ %%%%%o$@ %%",
"%%%%%%%%%%%%%%%%%.@+ %%%%o$@+ %%",
"%%%%%%%%%%%%%%%%% @@+  ..$@@ %%%",
"%%%%%%%%%%%%%%%%%% ++++@@@@+ %%%",
"%%%%%%%%%%%%%%%%%%% ++++++@ %%%%",
"%%%%%%%%%%%%%%%%%%%%       %%%%%",
"%%%%%%%%%%%%%%%%%%%%%%%%%%%%%%%%",
"%%%%%%%%%%%%%%%%%%%%%%%%%%%%%%%%",
"%%%%%%%%%%%%%%%%%%%%%%%%%%%%%%%%"
};
