/* XPM */
static const char *key_frame_6[] = {
/* columns rows colors chars-per-pixel */
"32 32 9 1 ",
"  c black",
". c #000800",
"X c #202020",
"o c #313031",
"O c #F69518",
"+ c #F6B252",
"@ c #FFDAA4",
"# c #FFEEDE",
"$ c None",
/* pixels */
"$$$$$$$$$$$$$$$. $$$$$$$$$$$$$$$",
"$$$$$$$$$$$$$$.@+ $$$$$$$$$$$$$$",
"$$$$$$$$$$$$$$X#+ $$$$$$$$$$$$$$",
"$$$$$$$$$$$$$$X#@ $$$$$$$$$$$$$$",
"$$$$$$$$$$$$$$X#@ $$$$$$$$$$$$$$",
"$$$$$$$$$$$$$$X#@ $$$$$$$$$$$$$$",
"$$$$$$$$$$$$$$o#@ $$$$$$$$$$$$$$",
"$$$$$$$$$$$$$$o#@ $$$$$$$$$$$$$$",
"$$$$$$$$$$$$$$o#@ $$$$$$$$$$$$$$",
"$$$$$$$$$$$$$$o#@ $$$$$$$$$$$$$$",
"$$$$$$$$$$$$$$o#@ $$$$$$$$$$$$$$",
"$$$$$$$$$$$$$$X#@ $$$$$$$$$$$$$$",
"$$$$$$$$$$$$$$X#@ $$$$$$$$$$$$$$",
"$$$$$$$$$$$$$$X#@ $$$$$$$$$$$$$$",
"$$$$$$$$$$$$$$X#@ $$$$$$$$$$$$$$",
"$$$$$$$$$$$$$$o#+ $$$$$$$$$$$$$$",
"$$$$$$$$$$$$$$o#+ $$$$$$$$$$$$$$",
"$$$$$$$$$$$$$$o#@ $$$$$$$$$$$$$$",
"$$$$$$$$$$$$$$o#@ $$$$$$$$$$$$$$",
"$$$$$$$$$$$$$$o#@ $$$$$$$$$$$$$$",
"$$$$$$$$$$$$$$X#+ $$$$$$$$$$$$$$",
"$$$$$$$$$$$$$$X@+ $$$$$$$$$$$$$$",
"$$$$$$$$$$$$$$X++ $$$$$$$$$$$$$$",
"$$$$$$$$$$$$$$.++ $$$$$$$$$$$$$$",
"$$$$$$$$$$$$$$.+O $$$$$$$$$$$$$$",
"$$$$$$$$$$$$$$.+O $$$$$$$$$$$$$$",
"$$$$$$$$$$$$$$ +O $$$$$$$$$$$$$$",
"$$$$$$$$$$$$$$ +O $$$$$$$$$$$$$$",
"$$$$$$$$$$$$$$    $$$$$$$$$$$$$$",
"$$$$$$$$$$$$$$$$$$$$$$$$$$$$$$$$",
"$$$$$$$$$$$$$$$$$$$$$$$$$$$$$$$$",
"$$$$$$$$$$$$$$$$$$$$$$$$$$$$$$$$"
};
