/* XPM */
static const char *key_frame_2[] = {
/* columns rows colors chars-per-pixel */
"32 32 10 1 ",
"  c black",
". c #000800",
"X c #202020",
"o c #313031",
"O c #EE8900",
"+ c #F69518",
"@ c #F6B252",
"# c #FFDAA4",
"$ c #FFEEDE",
"% c None",
/* pixels */
"%%%%%%%%%%%%%%%%%%%%%%%%%%%%%%%%",
"%%%%%%%%%%%%%%%%%%%%%%%%.  %%%%%",
"%%%%%%%%%%%%%%%%%%%%%%%.@+ %%%%%",
"%%%%%%%%%%%%%%%%%%%%%%X@@O %%%%%",
"%%%%%%%%%%%%%%%%%%%%%X@@+ %%%%%%",
"%%%%%%%%%%%%%%%%%%%%X$@+O@ %%%%%",
"%%%%%%%%%%%%%%%%%%%o$@+O@++ %%%%",
"%%%%%%%%%%%%%%%%%%o$@+@ @OOO %%%",
"%%%%%%%%%%%%%%%%%%o#@@ % @O %%%%",
"%%%%%%%%%%%%%%%%%o$@+@ %%  %%%%%",
"%%%%%%%%%%%%%%%%o$@@O@+ %%%%%%%%",
"%%%%%%%%%%%%%%%o$@+ @@OO %%%%%%%",
"%%%%%%%%%%%%%%o$@+ % @O %%%%%%%%",
"%%%%%%%%%%%%%o$@+ %%%  %%%%%%%%%",
"%%%%%%X...  X$@@ %%%%%%%%%%%%%%%",
"%%%%oX@@@+@@@#@ %%%%%%%%%%%%%%%%",
"%%%o$@@++++++@+ %%%%%%%%%%%%%%%%",
"%%%o$@+   @+++ %%%%%%%%%%%%%%%%%",
"%%o$@+ %%% @++ %%%%%%%%%%%%%%%%%",
"%%o$@ %%%%% @@@ %%%%%%%%%%%%%%%%",
"%%X#@ %%%%%%.#@ %%%%%%%%%%%%%%%%",
"%%X#@ %%%%%%X#@ %%%%%%%%%%%%%%%%",
"%%.#@ %%%%%%X#@ %%%%%%%%%%%%%%%%",
"%%.#@ %%%%%o$@@ %%%%%%%%%%%%%%%%",
"%%.@@+ %%%%o$@ %%%%%%%%%%%%%%%%%",
"%%% @++  .X#@+ %%%%%%%%%%%%%%%%%",
"%%% ++++@@@@+ %%%%%%%%%%%%%%%%%%",
"%%%% @+++++@ %%%%%%%%%%%%%%%%%%%",
"%%%%%       %%%%%%%%%%%%%%%%%%%%",
"%%%%%%%%%%%%%%%%%%%%%%%%%%%%%%%%",
"%%%%%%%%%%%%%%%%%%%%%%%%%%%%%%%%",
"%%%%%%%%%%%%%%%%%%%%%%%%%%%%%%%%"
};
