/* XPM */
static char * so_texture_xpm[] = {
"64 64 111 2",
"  	c #2600E0",
". 	c #2500DA",
"+ 	c #2000C7",
"@ 	c #1D00B7",
"# 	c #1B00AD",
"$ 	c #1A00A7",
"% 	c #1A00A9",
"& 	c #1B00AF",
"* 	c #1D00B5",
"= 	c #1F00BE",
"- 	c #2200CF",
"; 	c #2500DD",
"> 	c #2300D2",
", 	c #1900A5",
"' 	c #0C0068",
") 	c #010012",
"! 	c #000000",
"~ 	c #09005C",
"{ 	c #150092",
"] 	c #1D00B8",
"^ 	c #2400D6",
"/ 	c #2300D4",
"( 	c #14008E",
"_ 	c #010017",
": 	c #10007C",
"< 	c #1E00BA",
"[ 	c #040039",
"} 	c #0A0061",
"| 	c #00000A",
"1 	c #1F00BF",
"2 	c #11007F",
"3 	c #1C00B1",
"4 	c #2100C9",
"5 	c #2200CE",
"6 	c #2000C4",
"7 	c #1A00AA",
"8 	c #120084",
"9 	c #050043",
"0 	c #2300D1",
"a 	c #06004C",
"b 	c #0D006E",
"c 	c #2600DE",
"d 	c #1F00C1",
"e 	c #14008D",
"f 	c #02002A",
"g 	c #0C0069",
"h 	c #0E0073",
"i 	c #2500DC",
"j 	c #2400D7",
"k 	c #1800A1",
"l 	c #0B0066",
"m 	c #020027",
"n 	c #2300D3",
"o 	c #120086",
"p 	c #2100CA",
"q 	c #1A00AB",
"r 	c #1C00B4",
"s 	c #2100C8",
"t 	c #1A00A8",
"u 	c #140090",
"v 	c #020024",
"w 	c #030037",
"x 	c #2500DB",
"y 	c #18009F",
"z 	c #04003B",
"A 	c #1B00B0",
"B 	c #17009A",
"C 	c #01001C",
"D 	c #13008A",
"E 	c #2000C6",
"F 	c #0A005F",
"G 	c #030032",
"H 	c #010020",
"I 	c #13008B",
"J 	c #110081",
"K 	c #10007B",
"L 	c #10007D",
"M 	c #2400D8",
"N 	c #17009D",
"O 	c #050046",
"P 	c #06004B",
"Q 	c #120083",
"R 	c #1F00C2",
"S 	c #2400D5",
"T 	c #18009E",
"U 	c #2200D0",
"V 	c #2400D9",
"W 	c #0D0070",
"X 	c #2200CC",
"Y 	c #080059",
"Z 	c #080055",
"` 	c #080056",
" .	c #130089",
"..	c #060049",
"+.	c #030035",
"@.	c #120085",
"#.	c #1D00B6",
"$.	c #1C00B2",
"%.	c #10007A",
"&.	c #1B00AE",
"*.	c #07004E",
"=.	c #110082",
"-.	c #1800A0",
";.	c #2000C3",
">.	c #1B00AC",
",.	c #160096",
"'.	c #160095",
").	c #0F0079",
"!.	c #2600DF",
"~.	c #2100C7",
"{.	c #1900A6",
"                                                                                                                                ",
"                                                                                                                                ",
"                                                                                                                                ",
"                                                                                                                                ",
"                                                                                                                                ",
"                                                                                                                                ",
"                                                                                                                                ",
"                                                                                                                                ",
"                                                                                                                                ",
"                                                                                                                                ",
"                                                      . + @ # $ % & * = - ;                                                     ",
"                                                > , ' ) ! ! ! ! ! ! ! ! ! ) ~ { ] ^                                             ",
"                                            / ( _ ! ! ! ! ! ! ! ! ! ! ! ! ! ! ! ! ) : ]                                         ",
"                                          < [ ! ! ! ! ! ! ! ! ! ! ! ! ! ! ! ! ! ! ! ! }                                         ",
"                                        & | ! ! ! ! ! ! ! ! ! ! ! ! ! ! ! ! ! ! ! ! ! ,                                         ",
"                                      1 ) ! ! ! ! ! ) 2 3 4 / . ^ 5 6 7 8 9 ! ! ! ! ! 0                                         ",
"                                    . a ! ! ! ! ! b 5                     c d e f ! g                                           ",
"                                    7 ! ! ! ! ! h i                             j k 3                                           ",
"                                    l ! ! ! ! m n                                                                               ",
"                                  . | ! ! ! ! o                                                                                 ",
"                                  p ! ! ! ! ! q                                                                                 ",
"                                  6 ! ! ! ! ! r                                                                                 ",
"                                  s ! ! ! ! ! t                                                                                 ",
"                                  0 ! ! ! ! ! u                                                                                 ",
"                                  i v ! ! ! ! w x                                                                               ",
"                                    h ! ! ! ! ! y                                                                               ",
"                                    7 ! ! ! ! ! ! 7                                                                             ",
"                                    . z ! ! ! ! ! ! 8 /                                                                         ",
"                                      A ! ! ! ! ! ! ! m B /                                                                     ",
"                                        e ! ! ! ! ! ! ! ! C D E                                                                 ",
"                                        c { ! ! ! ! ! ! ! ! ! ! F 7 j                                                           ",
"                                            A G ! ! ! ! ! ! ! ! ! ! H I 4                                                       ",
"                                              > J ! ! ! ! ! ! ! ! ! ! ! ! K 4                                                   ",
"                                                  s L | ! ! ! ! ! ! ! ! ! ! | ( M                                               ",
"                                                      0 N O ! ! ! ! ! ! ! ! ! ! P s                                             ",
"                                                          c = Q _ ! ! ! ! ! ! ! ! m R                                           ",
"                                                                S T [ ! ! ! ! ! ! ! G U                                         ",
"                                                                    V T H ! ! ! ! ! ! W                                         ",
"                                                                        X Y ! ! ! ! ! ! d                                       ",
"                                                                          ^ Z ! ! ! ! ! (                                       ",
"                                                                            d ! ! ! ! ! `                                       ",
"                                                                              F ! ! ! ! | ;                                     ",
"                                                                              { ! ! ! ! ! j                                     ",
"                                                                              , ! ! ! ! ! ^                                     ",
"                                                                              k ! ! ! ! ! i                                     ",
"                                                                               .! ! ! ! ..                                      ",
"                                                                            i +.! ! ! ! @.                                      ",
"                                                                            N ! ! ! ! ! #.                                      ",
"                                  #.^                                     $.) ! ! ! ! P i                                       ",
"                                  F _ %.&.0                           S ( ! ! ! ! ! ! #.                                        ",
"                                  F ! ! ! ! *.=.-.< 4 - S . j 0 ;.q : _ ! ! ! ! ! ! (                                           ",
"                                  F ! ! ! ! ! ! ! ! ! ! ! ! ! ! ! ! ! ! ! ! ! ! !  .c                                           ",
"                                  F ! ! ! ! ! ! ! ! ! ! ! ! ! ! ! ! ! ! ! ! ! +.>.                                              ",
"                                  ,.v ! ! ! ! ! ! ! ! ! ! ! ! ! ! ! ! ! ! v e S                                                 ",
"                                    . < '.g v ! ! ! ! ! ! ! ! ! ! ! [ ).& M                                                     ",
"                                            !./ ~.< $.&.t {.&.#.= 0                                                             ",
"                                                                                                                                ",
"                                                                                                                                ",
"                                                                                                                                ",
"                                                                                                                                ",
"                                                                                                                                ",
"                                                                                                                                ",
"                                                                                                                                ",
"                                                                                                                                "};
