/* XPM */
static char * no_texture_xpm[] = {
"64 64 100 2",
"  	c #FF0000",
". 	c #1C0000",
"+ 	c #000000",
"@ 	c #810000",
"# 	c #FE0000",
"$ 	c #F20000",
"% 	c #C70000",
"& 	c #3B0000",
"* 	c #F10000",
"= 	c #900000",
"- 	c #D10000",
"; 	c #4D0000",
"> 	c #F50000",
", 	c #9F0000",
"' 	c #5C0000",
") 	c #DA0000",
"! 	c #940000",
"~ 	c #B40000",
"{ 	c #5D0000",
"] 	c #F90000",
"^ 	c #850000",
"/ 	c #FB0000",
"( 	c #690000",
"_ 	c #AC0000",
": 	c #750000",
"< 	c #E10000",
"[ 	c #0D0000",
"} 	c #E20000",
"| 	c #600000",
"1 	c #AB0000",
"2 	c #6D0000",
"3 	c #FC0000",
"4 	c #450000",
"5 	c #5F0000",
"6 	c #B80000",
"7 	c #220000",
"8 	c #DC0000",
"9 	c #E90000",
"0 	c #A30000",
"a 	c #7C0000",
"b 	c #F70000",
"c 	c #550000",
"d 	c #C30000",
"e 	c #D60000",
"f 	c #350000",
"g 	c #EF0000",
"h 	c #F40000",
"i 	c #990000",
"j 	c #8B0000",
"k 	c #490000",
"l 	c #CD0000",
"m 	c #EE0000",
"n 	c #CF0000",
"o 	c #470000",
"p 	c #ED0000",
"q 	c #8F0000",
"r 	c #9A0000",
"s 	c #3D0000",
"t 	c #D70000",
"u 	c #C80000",
"v 	c #580000",
"w 	c #F80000",
"x 	c #A80000",
"y 	c #320000",
"z 	c #E00000",
"A 	c #C10000",
"B 	c #680000",
"C 	c #F30000",
"D 	c #EA0000",
"E 	c #260000",
"F 	c #E70000",
"G 	c #BA0000",
"H 	c #770000",
"I 	c #FD0000",
"J 	c #FA0000",
"K 	c #720000",
"L 	c #C00000",
"M 	c #E50000",
"N 	c #160000",
"O 	c #2E0000",
"P 	c #B20000",
"Q 	c #870000",
"R 	c #4B0000",
"S 	c #CA0000",
"T 	c #420000",
"U 	c #710000",
"V 	c #AA0000",
"W 	c #950000",
"X 	c #7F0000",
"Y 	c #D40000",
"Z 	c #8C0000",
"` 	c #DB0000",
" .	c #530000",
"..	c #790000",
"+.	c #A00000",
"@.	c #F60000",
"#.	c #510000",
"$.	c #970000",
"%.	c #CE0000",
"&.	c #8E0000",
"                                                                                                                                ",
"                                                                                                                                ",
"                                                                                                                                ",
"                                                                                                                                ",
"                                                                                                                                ",
"                                                                                                                                ",
"                                                                                                                                ",
"                                                                                                                                ",
"                                                                                                                                ",
"                                                                                                                                ",
"                                                                                                                                ",
"                            . + + + + + @ #                                           $ + + + + + $                             ",
"                            . + + + + + + %                                           $ + + + + + $                             ",
"                            . + + + + + + & *                                         $ + + + + + $                             ",
"                            . + + + + + + + =                                         $ + + + + + $                             ",
"                            . + + + + + + + + -                                       $ + + + + + $                             ",
"                            . + + + + + + + + ; >                                     $ + + + + + $                             ",
"                            . + + + + + + + + + ,                                     $ + + + + + $                             ",
"                            . + + + ' . + + + + + )                                   $ + + + + + $                             ",
"                            . + + + ! ~ + + + + + { ]                                 $ + + + + + $                             ",
"                            . + + + ^ / ( + + + + + _                                 $ + + + + + $                             ",
"                            . + + + :   < [ + + + + [ }                               $ + + + + + $                             ",
"                            . + + + |     1 + + + + + 2 3                             $ + + + + + $                             ",
"                            . + + + 4     ] 5 + + + + + 6                             $ + + + + + $                             ",
"                            . + + + 7       8 + + + + + 7 9                           $ + + + + + $                             ",
"                            . + + + + #       0 + + + + + a #                         $ + + + + + $                             ",
"                            . + + + + /       b c + + + + + d                         $ + + + + + $                             ",
"                            . + + + + b         e + + + + + f g                       $ + + + + + $                             ",
"                            . + + + + h           i + + + + + j                       $ + + + + + $                             ",
"                            . + + + + *           h k + + + + + l                     $ + + + + + $                             ",
"                            . + + + + m             n + + + + + o h                   $ + + + + + $                             ",
"                            . + + + + p               q + + + + + r                   $ + + + + + $                             ",
"                            . + + + + p               * s + + + + + t                 $ + + + + + $                             ",
"                            . + + + + p                 u + + + + + v w               $ + + + + + $                             ",
"                            . + + + + p                   ^ + + + + + x               $ + + + + + $                             ",
"                            . + + + + p                   m y + + + + + z             $ + + + + + $                             ",
"                            . + + + + p                     A + + + + + B /           C + + + + + $                             ",
"                            . + + + + p                     # a + + + + + ~           h + + + + + $                             ",
"                            . + + + + p                       D E + + + + . F         b + + + + + $                             ",
"                            . + + + + p                         G + + + + + H I       J + + + + + $                             ",
"                            . + + + + p                         3 K + + + + + L       # + + + + + $                             ",
"                            . + + + + p                           M N + + + + y m       O + + + + $                             ",
"                            . + + + + p                             P + + + + + Q       R + + + + $                             ",
"                            . + + + + p                             / B + + + + + S     5 + + + + $                             ",
"                            . + + + + p                               z [ + + + + T C   U + + + + $                             ",
"                            . + + + + p                                 V + + + + + W   X + + + + $                             ",
"                            . + + + + p                                 ] { + + + + + Y Z + + + + $                             ",
"                            . + + + + p                                   ` + + + + +  ...+ + + + $                             ",
"                            . + + + + p                                     +.+ + + + + + + + + + $                             ",
"                            . + + + + p                                     @.#.+ + + + + + + + + $                             ",
"                            . + + + + p                                       Y + + + + + + + + + $                             ",
"                            . + + + + p                                         $.+ + + + + + + + $                             ",
"                            . + + + + p                                         h o + + + + + + + $                             ",
"                            . + + + + p                                           %.+ + + + + + + $                             ",
"                            . + + + + p                                             &.+ + + + + + $                             ",
"                                                                                                                                ",
"                                                                                                                                ",
"                                                                                                                                ",
"                                                                                                                                ",
"                                                                                                                                ",
"                                                                                                                                ",
"                                                                                                                                ",
"                                                                                                                                ",
"                                                                                                                                "};
